;Project wastedxf
;Created by Estlcam version 12 build 12.069
;Machining time about 04:16:25 hours

G90
G92 X0 Y0 Z0 ; Set Current position to 0, all axes
G00 Z5.0000 F500 ; Raise Z 5mm at 8.3mm/s to clear clamps and screws
G28 X Y Z ; Home in order, with Z touchplate
G92 Z14 ; Account for probe thickness
G00 Z5.000 F500 ; Raise Z probe off of surface
M00 ; Pause for LCD button press so you can remove the touchplate
G00 X0.0000 Y0.0000 Z0.0000 F2100
G00 Z2.0000 F480


;No. 1: Engraving 1
G00 X0.0000 Y0.0000 Z2.0000 F2100
G00 Z0.5000 F480
G01 Z0.0000 F180 S24000
G01 Z-1.0000 F180
G01 X560.0000 F900
G01 Y330.0000 F900
G01 X0.0000 F900
G01 Y0.0000 F900
G00 Z2.0000 F480


;No. 2: Engraving 40
G00 X0.0000 Y0.0000 Z2.0000 F2100
G00 Z0.5000 F480
G01 Z0.0000 F180
G01 Z-1.0000 F180
G01 X560.0000 F900
G01 Y330.0000 F900
G01 X0.0000 F900
G01 Y0.0000 F900
G00 Z2.0000 F480


;No. 3: Engraving 41
G00 X0.0000 Y0.0000 Z2.0000 F2100
G00 Z0.5000 F480
G01 Z0.0000 F180
G01 Z-1.0000 F180
G01 X560.0000 F900
G01 Y330.0000 F900
G01 X0.0000 F900
G01 Y0.0000 F900
G00 Z2.0000 F480


;No. 4: Engraving 2
G00 X10.0000 Y0.0000 Z2.0000 F2100
G00 Z0.5000 F480
G01 Z0.0000 F180
G01 Z-1.0000 F180
G01 Y330.0000 F900
G00 Z2.0000 F480


;No. 5: Engraving 59
G00 X10.0000 Y330.0000 Z2.0000 F2100
G00 Z0.5000 F480
G01 Z0.0000 F180
G01 Z-1.0000 F180
G01 X0.0000 F900
G01 X560.0000 Y0.0000 F900
G01 Y330.0000 F900
G01 X10.0000 F900
G00 Z2.0000 F480


;No. 6: Engraving 8
G00 X70.0000 Y0.0000 Z2.0000 F2100
G00 Z0.5000 F480
G01 Z0.0000 F180
G01 Z-1.0000 F180
G01 Y330.0000 F900
G00 Z2.0000 F480


;No. 7: Engraving 5
G00 X40.0000 Y0.0000 Z2.0000 F2100
G00 Z0.5000 F480
G01 Z0.0000 F180
G01 Z-1.0000 F180
G01 Y330.0000 F900
G00 Z2.0000 F480


;No. 8: Engraving 11
G00 X90.0000 Y0.0000 Z2.0000 F2100
G00 Z0.5000 F480
G01 Z0.0000 F180
G01 Z-1.0000 F180
G01 Y330.0000 F900
G00 Z2.0000 F480


;No. 9: Engraving 6
G00 X50.0000 Y0.0000 Z2.0000 F2100
G00 Z0.5000 F480
G01 Z0.0000 F180
G01 Z-1.0000 F180
G01 Y330.0000 F900
G00 Z2.0000 F480


;No. 10: Engraving 12
G00 X110.0000 Y0.0000 Z2.0000 F2100
G00 Z0.5000 F480
G01 Z0.0000 F180
G01 Z-1.0000 F180
G01 Y330.0000 F900
G00 Z2.0000 F480


;No. 11: Engraving 16
G00 X150.0000 Y0.0000 Z2.0000 F2100
G00 Z0.5000 F480
G01 Z0.0000 F180
G01 Z-1.0000 F180
G01 Y330.0000 F900
G00 Z2.0000 F480


;No. 12: Engraving 13
G00 X120.0000 Y0.0000 Z2.0000 F2100
G00 Z0.5000 F480
G01 Z0.0000 F180
G01 Z-1.0000 F180
G01 Y330.0000 F900
G00 Z2.0000 F480


;No. 13: Engraving 18
G00 X170.0000 Y0.0000 Z2.0000 F2100
G00 Z0.5000 F480
G01 Z0.0000 F180
G01 Z-1.0000 F180
G01 Y330.0000 F900
G00 Z2.0000 F480


;No. 14: Engraving 14
G00 X130.0000 Y0.0000 Z2.0000 F2100
G00 Z0.5000 F480
G01 Z0.0000 F180
G01 Z-1.0000 F180
G01 Y330.0000 F900
G00 Z2.0000 F480


;No. 15: Engraving 20
G00 X190.0000 Y0.0000 Z2.0000 F2100
G00 Z0.5000 F480
G01 Z0.0000 F180
G01 Z-1.0000 F180
G01 Y330.0000 F900
G00 Z2.0000 F480


;No. 16: Engraving 23
G00 X230.0000 Y0.0000 Z2.0000 F2100
G00 Z0.5000 F480
G01 Z0.0000 F180
G01 Z-1.0000 F180
G01 Y330.0000 F900
G00 Z2.0000 F480


;No. 17: Engraving 93
G00 X560.0000 Y320.0000 Z2.0000 F2100
G00 Z0.5000 F480
G01 Z0.0000 F180
G01 Z-1.0000 F180
G01 X0.0000 F900
G00 Z2.0000 F480


;No. 18: Engraving 10
G00 X100.0000 Y0.0000 Z2.0000 F2100
G00 Z0.5000 F480
G01 Z0.0000 F180
G01 Z-1.0000 F180
G01 Y330.0000 F900
G00 Z2.0000 F480


;No. 19: Engraving 3
G00 X20.0000 Y0.0000 Z2.0000 F2100
G00 Z0.5000 F480
G01 Z0.0000 F180
G01 Z-1.0000 F180
G01 Y330.0000 F900
G00 Z2.0000 F480


;No. 20: Engraving 9
G00 X80.0000 Y0.0000 Z2.0000 F2100
G00 Z0.5000 F480
G01 Z0.0000 F180
G01 Z-1.0000 F180
G01 Y330.0000 F900
G00 Z2.0000 F480


;No. 21: Engraving 19
G00 X180.0000 Y0.0000 Z2.0000 F2100
G00 Z0.5000 F480
G01 Z0.0000 F180
G01 Z-1.0000 F180
G01 Y330.0000 F900
G00 Z2.0000 F480


;No. 22: Engraving 25
G00 X240.0000 Y0.0000 Z2.0000 F2100
G00 Z0.5000 F480
G01 Z0.0000 F180
G01 Z-1.0000 F180
G01 Y330.0000 F900
G00 Z2.0000 F480


;No. 23: Engraving 91
G00 X560.0000 Y300.0000 Z2.0000 F2100
G00 Z0.5000 F480
G01 Z0.0000 F180
G01 Z-1.0000 F180
G01 X0.0000 F900
G00 Z2.0000 F480


;No. 24: Engraving 7
G00 X60.0000 Y0.0000 Z2.0000 F2100
G00 Z0.5000 F480
G01 Z0.0000 F180
G01 Z-1.0000 F180
G01 Y330.0000 F900
G00 Z2.0000 F480


;No. 25: Engraving 17
G00 X160.0000 Y0.0000 Z2.0000 F2100
G00 Z0.5000 F480
G01 Z0.0000 F180
G01 Z-1.0000 F180
G01 Y330.0000 F900
G00 Z2.0000 F480


;No. 26: Engraving 27
G00 X260.0000 Y0.0000 Z2.0000 F2100
G00 Z0.5000 F480
G01 Z0.0000 F180
G01 Z-1.0000 F180
G01 Y330.0000 F900
G00 Z2.0000 F480


;No. 27: Engraving 90
G00 X560.0000 Y290.0000 Z2.0000 F2100
G00 Z0.5000 F480
G01 Z0.0000 F180
G01 Z-1.0000 F180
G01 X0.0000 F900
G00 Z2.0000 F480


;No. 28: Engraving 4
G00 X30.0000 Y0.0000 Z2.0000 F2100
G00 Z0.5000 F480
G01 Z0.0000 F180
G01 Z-1.0000 F180
G01 Y330.0000 F900
G00 Z2.0000 F480


;No. 29: Engraving 15
G00 X140.0000 Y0.0000 Z2.0000 F2100
G00 Z0.5000 F480
G01 Z0.0000 F180
G01 Z-1.0000 F180
G01 Y330.0000 F900
G00 Z2.0000 F480


;No. 30: Engraving 26
G00 X250.0000 Y0.0000 Z2.0000 F2100
G00 Z0.5000 F480
G01 Z0.0000 F180
G01 Z-1.0000 F180
G01 Y330.0000 F900
G00 Z2.0000 F480


;No. 31: Engraving 89
G00 X560.0000 Y280.0000 Z2.0000 F2100
G00 Z0.5000 F480
G01 Z0.0000 F180
G01 Z-1.0000 F180
G01 X0.0000 F900
G00 Z2.0000 F480


;No. 32: Engraving 24
G00 X220.0000 Y0.0000 Z2.0000 F2100
G00 Z0.5000 F480
G01 Z0.0000 F180
G01 Z-1.0000 F180
G01 Y330.0000 F900
G00 Z2.0000 F480


;No. 33: Engraving 31
G00 X300.0000 Y0.0000 Z2.0000 F2100
G00 Z0.5000 F480
G01 Z0.0000 F180
G01 Z-1.0000 F180
G01 Y330.0000 F900
G00 Z2.0000 F480


;No. 34: Engraving 88
G00 X560.0000 Y270.0000 Z2.0000 F2100
G00 Z0.5000 F480
G01 Z0.0000 F180
G01 Z-1.0000 F180
G01 X0.0000 F900
G00 Z2.0000 F480


;No. 35: Engraving 22
G00 X210.0000 Y0.0000 Z2.0000 F2100
G00 Z0.5000 F480
G01 Z0.0000 F180
G01 Z-1.0000 F180
G01 Y330.0000 F900
G00 Z2.0000 F480


;No. 36: Engraving 32
G00 X310.0000 Y0.0000 Z2.0000 F2100
G00 Z0.5000 F480
G01 Z0.0000 F180
G01 Z-1.0000 F180
G01 Y330.0000 F900
G00 Z2.0000 F480


;No. 37: Engraving 87
G00 X560.0000 Y260.0000 Z2.0000 F2100
G00 Z0.5000 F480
G01 Z0.0000 F180
G01 Z-1.0000 F180
G01 X0.0000 F900
G00 Z2.0000 F480


;No. 38: Engraving 21
G00 X200.0000 Y0.0000 Z2.0000 F2100
G00 Z0.5000 F480
G01 Z0.0000 F180
G01 Z-1.0000 F180
G01 Y330.0000 F900
G00 Z2.0000 F480


;No. 39: Engraving 34
G00 X320.0000 Y0.0000 Z2.0000 F2100
G00 Z0.5000 F480
G01 Z0.0000 F180
G01 Z-1.0000 F180
G01 Y330.0000 F900
G00 Z2.0000 F480


;No. 40: Engraving 92
G00 X560.0000 Y310.0000 Z2.0000 F2100
G00 Z0.5000 F480
G01 Z0.0000 F180
G01 Z-1.0000 F180
G01 X0.0000 F900
G00 Z2.0000 F480


;No. 41: Engraving 30
G00 X290.0000 Y0.0000 Z2.0000 F2100
G00 Z0.5000 F480
G01 Z0.0000 F180
G01 Z-1.0000 F180
G01 Y330.0000 F900
G00 Z2.0000 F480


;No. 42: Engraving 85
G00 X560.0000 Y240.0000 Z2.0000 F2100
G00 Z0.5000 F480
G01 Z0.0000 F180
G01 Z-1.0000 F180
G01 X0.0000 F900
G00 Z2.0000 F480


;No. 43: Engraving 29
G00 X280.0000 Y0.0000 Z2.0000 F2100
G00 Z0.5000 F480
G01 Z0.0000 F180
G01 Z-1.0000 F180
G01 Y330.0000 F900
G00 Z2.0000 F480


;No. 44: Engraving 84
G00 X560.0000 Y230.0000 Z2.0000 F2100
G00 Z0.5000 F480
G01 Z0.0000 F180
G01 Z-1.0000 F180
G01 X0.0000 F900
G00 Z2.0000 F480


;No. 45: Engraving 28
G00 X270.0000 Y0.0000 Z2.0000 F2100
G00 Z0.5000 F480
G01 Z0.0000 F180
G01 Z-1.0000 F180
G01 Y330.0000 F900
G00 Z2.0000 F480


;No. 46: Engraving 83
G00 X560.0000 Y220.0000 Z2.0000 F2100
G00 Z0.5000 F480
G01 Z0.0000 F180
G01 Z-1.0000 F180
G01 X0.0000 F900
G00 Z2.0000 F480


;No. 47: Engraving 36
G00 X350.0000 Y0.0000 Z2.0000 F2100
G00 Z0.5000 F480
G01 Z0.0000 F180
G01 Z-1.0000 F180
G01 Y330.0000 F900
G00 Z2.0000 F480


;No. 48: Engraving 86
G00 X560.0000 Y250.0000 Z2.0000 F2100
G00 Z0.5000 F480
G01 Z0.0000 F180
G01 Z-1.0000 F180
G01 X0.0000 F900
G00 Z2.0000 F480


;No. 49: Engraving 35
G00 X340.0000 Y0.0000 Z2.0000 F2100
G00 Z0.5000 F480
G01 Z0.0000 F180
G01 Z-1.0000 F180
G01 Y330.0000 F900
G00 Z2.0000 F480


;No. 50: Engraving 81
G00 X560.0000 Y200.0000 Z2.0000 F2100
G00 Z0.5000 F480
G01 Z0.0000 F180
G01 Z-1.0000 F180
G01 X0.0000 F900
G00 Z2.0000 F480


;No. 51: Engraving 33
G00 X330.0000 Y0.0000 Z2.0000 F2100
G00 Z0.5000 F480
G01 Z0.0000 F180
G01 Z-1.0000 F180
G01 Y330.0000 F900
G00 Z2.0000 F480


;No. 52: Engraving 80
G00 X560.0000 Y190.0000 Z2.0000 F2100
G00 Z0.5000 F480
G01 Z0.0000 F180
G01 Z-1.0000 F180
G01 X0.0000 F900
G00 Z2.0000 F480


;No. 53: Engraving 39
G00 X380.0000 Y0.0000 Z2.0000 F2100
G00 Z0.5000 F480
G01 Z0.0000 F180
G01 Z-1.0000 F180
G01 Y330.0000 F900
G00 Z2.0000 F480


;No. 54: Engraving 82
G00 X560.0000 Y210.0000 Z2.0000 F2100
G00 Z0.5000 F480
G01 Z0.0000 F180
G01 Z-1.0000 F180
G01 X0.0000 F900
G00 Z2.0000 F480


;No. 55: Engraving 38
G00 X370.0000 Y0.0000 Z2.0000 F2100
G00 Z0.5000 F480
G01 Z0.0000 F180
G01 Z-1.0000 F180
G01 Y330.0000 F900
G00 Z2.0000 F480


;No. 56: Engraving 78
G00 X560.0000 Y170.0000 Z2.0000 F2100
G00 Z0.5000 F480
G01 Z0.0000 F180
G01 Z-1.0000 F180
G01 X0.0000 F900
G00 Z2.0000 F480


;No. 57: Engraving 37
G00 X360.0000 Y0.0000 Z2.0000 F2100
G00 Z0.5000 F480
G01 Z0.0000 F180
G01 Z-1.0000 F180
G01 Y330.0000 F900
G00 Z2.0000 F480


;No. 58: Engraving 77
G00 X560.0000 Y160.0000 Z2.0000 F2100
G00 Z0.5000 F480
G01 Z0.0000 F180
G01 Z-1.0000 F180
G01 X0.0000 F900
G00 Z2.0000 F480


;No. 59: Engraving 44
G00 X410.0000 Y0.0000 Z2.0000 F2100
G00 Z0.5000 F480
G01 Z0.0000 F180
G01 Z-1.0000 F180
G01 Y330.0000 F900
G00 Z2.0000 F480


;No. 60: Engraving 79
G00 X560.0000 Y180.0000 Z2.0000 F2100
G00 Z0.5000 F480
G01 Z0.0000 F180
G01 Z-1.0000 F180
G01 X0.0000 F900
G00 Z2.0000 F480


;No. 61: Engraving 43
G00 X400.0000 Y0.0000 Z2.0000 F2100
G00 Z0.5000 F480
G01 Z0.0000 F180
G01 Z-1.0000 F180
G01 Y330.0000 F900
G00 Z2.0000 F480


;No. 62: Engraving 74
G00 X560.0000 Y140.0000 Z2.0000 F2100
G00 Z0.5000 F480
G01 Z0.0000 F180
G01 Z-1.0000 F180
G01 X0.0000 F900
G00 Z2.0000 F480


;No. 63: Engraving 42
G00 X390.0000 Y0.0000 Z2.0000 F2100
G00 Z0.5000 F480
G01 Z0.0000 F180
G01 Z-1.0000 F180
G01 Y330.0000 F900
G00 Z2.0000 F480


;No. 64: Engraving 76
G00 X560.0000 Y150.0000 Z2.0000 F2100
G00 Z0.5000 F480
G01 Z0.0000 F180
G01 Z-1.0000 F180
G01 X0.0000 F900
G00 Z2.0000 F480


;No. 65: Engraving 47
G00 X440.0000 Y0.0000 Z2.0000 F2100
G00 Z0.5000 F480
G01 Z0.0000 F180
G01 Z-1.0000 F180
G01 Y330.0000 F900
G00 Z2.0000 F480


;No. 66: Engraving 72
G00 X560.0000 Y120.0000 Z2.0000 F2100
G00 Z0.5000 F480
G01 Z0.0000 F180
G01 Z-1.0000 F180
G01 X0.0000 F900
G00 Z2.0000 F480


;No. 67: Engraving 46
G00 X430.0000 Y0.0000 Z2.0000 F2100
G00 Z0.5000 F480
G01 Z0.0000 F180
G01 Z-1.0000 F180
G01 Y330.0000 F900
G00 Z2.0000 F480


;No. 68: Engraving 73
G00 X560.0000 Y130.0000 Z2.0000 F2100
G00 Z0.5000 F480
G01 Z0.0000 F180
G01 Z-1.0000 F180
G01 X0.0000 F900
G00 Z2.0000 F480


;No. 69: Engraving 45
G00 X420.0000 Y0.0000 Z2.0000 F2100
G00 Z0.5000 F480
G01 Z0.0000 F180
G01 Z-1.0000 F180
G01 Y330.0000 F900
G00 Z2.0000 F480


;No. 70: Engraving 70
G00 X560.0000 Y100.0000 Z2.0000 F2100
G00 Z0.5000 F480
G01 Z0.0000 F180
G01 Z-1.0000 F180
G01 X0.0000 F900
G00 Z2.0000 F480


;No. 71: Engraving 50
G00 X470.0000 Y0.0000 Z2.0000 F2100
G00 Z0.5000 F480
G01 Z0.0000 F180
G01 Z-1.0000 F180
G01 Y330.0000 F900
G00 Z2.0000 F480


;No. 72: Engraving 71
G00 X560.0000 Y110.0000 Z2.0000 F2100
G00 Z0.5000 F480
G01 Z0.0000 F180
G01 Z-1.0000 F180
G01 X0.0000 F900
G00 Z2.0000 F480


;No. 73: Engraving 48
G00 X460.0000 Y0.0000 Z2.0000 F2100
G00 Z0.5000 F480
G01 Z0.0000 F180
G01 Z-1.0000 F180
G01 Y330.0000 F900
G00 Z2.0000 F480


;No. 74: Engraving 68
G00 X560.0000 Y80.0000 Z2.0000 F2100
G00 Z0.5000 F480
G01 Z0.0000 F180
G01 Z-1.0000 F180
G01 X0.0000 F900
G00 Z2.0000 F480


;No. 75: Engraving 49
G00 X450.0000 Y0.0000 Z2.0000 F2100
G00 Z0.5000 F480
G01 Z0.0000 F180
G01 Z-1.0000 F180
G01 Y330.0000 F900
G00 Z2.0000 F480


;No. 76: Engraving 69
G00 X560.0000 Y90.0000 Z2.0000 F2100
G00 Z0.5000 F480
G01 Z0.0000 F180
G01 Z-1.0000 F180
G01 X0.0000 F900
G00 Z2.0000 F480


;No. 77: Engraving 53
G00 X500.0000 Y0.0000 Z2.0000 F2100
G00 Z0.5000 F480
G01 Z0.0000 F180
G01 Z-1.0000 F180
G01 Y330.0000 F900
G00 Z2.0000 F480


;No. 78: Engraving 66
G00 X560.0000 Y60.0000 Z2.0000 F2100
G00 Z0.5000 F480
G01 Z0.0000 F180
G01 Z-1.0000 F180
G01 X0.0000 F900
G00 Z2.0000 F480


;No. 79: Engraving 52
G00 X490.0000 Y0.0000 Z2.0000 F2100
G00 Z0.5000 F480
G01 Z0.0000 F180
G01 Z-1.0000 F180
G01 Y330.0000 F900
G00 Z2.0000 F480


;No. 80: Engraving 67
G00 X560.0000 Y70.0000 Z2.0000 F2100
G00 Z0.5000 F480
G01 Z0.0000 F180
G01 Z-1.0000 F180
G01 X0.0000 F900
G00 Z2.0000 F480


;No. 81: Engraving 51
G00 X480.0000 Y0.0000 Z2.0000 F2100
G00 Z0.5000 F480
G01 Z0.0000 F180
G01 Z-1.0000 F180
G01 Y330.0000 F900
G00 Z2.0000 F480


;No. 82: Engraving 65
G00 X560.0000 Y50.0000 Z2.0000 F2100
G00 Z0.5000 F480
G01 Z0.0000 F180
G01 Z-1.0000 F180
G01 X0.0000 F900
G00 Z2.0000 F480


;No. 83: Engraving 56
G00 X530.0000 Y0.0000 Z2.0000 F2100
G00 Z0.5000 F480
G01 Z0.0000 F180
G01 Z-1.0000 F180
G01 Y330.0000 F900
G00 Z2.0000 F480


;No. 84: Engraving 64
G00 X560.0000 Y40.0000 Z2.0000 F2100
G00 Z0.5000 F480
G01 Z0.0000 F180
G01 Z-1.0000 F180
G01 X0.0000 F900
G00 Z2.0000 F480


;No. 85: Engraving 55
G00 X520.0000 Y0.0000 Z2.0000 F2100
G00 Z0.5000 F480
G01 Z0.0000 F180
G01 Z-1.0000 F180
G01 Y330.0000 F900
G00 Z2.0000 F480


;No. 86: Engraving 63
G00 X560.0000 Y50.0000 Z2.0000 F2100
G00 Z0.5000 F480
G01 Z0.0000 F180
G01 Z-1.0000 F180
G01 X0.0000 F900
G00 Z2.0000 F480


;No. 87: Engraving 54
G00 X510.0000 Y0.0000 Z2.0000 F2100
G00 Z0.5000 F480
G01 Z0.0000 F180
G01 Z-1.0000 F180
G01 Y330.0000 F900
G00 Z2.0000 F480


;No. 88: Engraving 61
G00 X560.0000 Y20.0000 Z2.0000 F2100
G00 Z0.5000 F480
G01 Z0.0000 F180
G01 Z-1.0000 F180
G01 X0.0000 F900
G00 Z2.0000 F480


;No. 89: Engraving 60
G00 X560.0000 Y10.0000 Z2.0000 F2100
G00 Z0.5000 F480
G01 Z0.0000 F180
G01 Z-1.0000 F180
G01 X0.0000 F900
G00 Z2.0000 F480


;No. 90: Engraving 58
G00 X550.0000 Y0.0000 Z2.0000 F2100
G00 Z0.5000 F480
G01 Z0.0000 F180
G01 Z-1.0000 F180
G01 Y330.0000 F900
G00 Z2.0000 F480


;No. 91: Engraving 62
G00 X560.0000 Y30.0000 Z2.0000 F2100
G00 Z0.5000 F480
G01 Z0.0000 F180
G01 Z-1.0000 F180
G01 X0.0000 F900
G00 Z2.0000 F480


;No. 92: Engraving 75
G00 X550.0000 Y0.0000 Z2.0000 F2100
G00 Z0.5000 F480
G01 Z0.0000 F180
G01 Z-1.0000 F180
G01 Y330.0000 F900
G00 Z2.0000 F480


;No. 93: Engraving 57
G00 X540.0000 Y0.0000 Z2.0000 F2100
G00 Z0.5000 F480
G01 Z0.0000 F180
G01 Z-1.0000 F180
G01 Y330.0000 F900
G00 Z2.0000 F480
G00 X0.0000 Y0.0000 F2100

G0 Z5 ; Lift Z axis 5mm
M00 ; Pause so the Z axis does not fall
