;Fusion CAM 2.0.20460
; Posts processor: MPCNC.cps
; Gcode generated: Tuesday, October 8, 2024 8:58:44 PM GMT
; Document: wasteboard v8
; Setup: Setup1
;When using Fusion for Personal Use, the feedrate of rapid
;moves is reduced to match the feedrate of cutting moves,
;which can increase machining time. Unrestricted rapid moves
;are available with a Fusion Subscription.
; 
; Ranges Table:
;   X: Min=19.525 Max=540.475 Size=520.95
;   Y: Min=19.525 Max=310.475 Size=290.95
;   Z: Min=-14 Max=9 Size=23
; 
; Tools Table:
;  T1 D=6.35 CR=0 - ZMIN=-14 - flat end mill 
; 
; Feedrate and Scaling Properties:
;   Feed: Travel speed X/Y = 2500
;   Feed: Travel Speed Z = 300
;   Feed: Enforce Feedrate = true
;   Feed: Scale Feedrate = false
;   Feed: Max XY Cut Speed = 1020
;   Feed: Max Z Cut Speed = 180
;   Feed: Max Toolpath Speed = 1000
; 
; G1->G0 Mapping Properties:
;   Map: First G1 -> G0 Rapid = false
;   Map: G1s -> G0 Rapids = false
;   Map: SafeZ Mode = Retract : default = 15
;   Map: Allow Rapid Z = false
; 
; *** START begin ***
;   Set Absolute Positioning
;   Units = mm
;   Disable stepper timeout
;   Set current position to 0,0,0
G90
G21
M84 S0
G92 X0 Y0 Z0
; COMMAND_TOOL_MEASURE
; Probe to Zero Z
;   Ask User to Attach the Z Probe
;   Do Probing
;   Set Z to probe thickness: Z14
;   Retract the tool to 40
;   Ask User to Remove the Z Probe
M0 Attach ZProbe
G28 Z
G92 Z14
G0 Z40 F300
M400
M0 Detach ZProbe
; *** START end ***
; 
; *** SECTION begin ***
;   X Min: 19.525 - X Max: 540.475
;   Y Min: 19.525 - Y Max: 310.475
;   Z Min: -14 - Z Max: 9
; Bore1 - Milling - Tool: 1 -  flat end mill
; COMMAND_START_SPINDLE
; COMMAND_SPINDLE_CLOCKWISE
; >>> Spindle Speed: Manual
M0 Turn ON 13500RPM
; COMMAND_COOLANT_ON
M117  Bore1
; MOVEMENT_CUTTING
G1 X539.92 Y19.763 Z9 F1016
G1 Z1.365 F1016
; MOVEMENT_LEAD_IN
G1 Z0 F1016
G1 X540.237 F1016
G3 X540.475 Y20 J0.237 F1016
; MOVEMENT_CUTTING
G1 X540.471 Y20.061 Z-0.005 F1016
G1 X540.459 Y20.122 Z-0.011 F1016
G1 X540.439 Y20.18 Z-0.016 F1016
G1 X540.412 Y20.236 Z-0.021 F1016
G1 X540.378 Y20.287 Z-0.026 F1016
G1 X540.338 Y20.334 Z-0.032 F1016
G1 X540.292 Y20.375 Z-0.037 F1016
G1 X540.241 Y20.409 Z-0.042 F1016
G1 X540.186 Y20.437 Z-0.047 F1016
G1 X540.128 Y20.457 Z-0.053 F1016
G1 X540.068 Y20.47 Z-0.058 F1016
G1 X540.006 Y20.475 Z-0.063 F1016
G1 X539.945 Y20.472 Z-0.068 F1016
G1 X539.884 Y20.461 Z-0.074 F1016
G1 X539.826 Y20.442 Z-0.079 F1016
G1 X539.77 Y20.416 Z-0.084 F1016
G1 X539.718 Y20.382 Z-0.09 F1016
G1 X539.671 Y20.343 Z-0.095 F1016
G1 X539.629 Y20.297 Z-0.1 F1016
G1 X539.594 Y20.247 Z-0.105 F1016
G1 X539.566 Y20.192 Z-0.111 F1016
G1 X539.544 Y20.134 Z-0.116 F1016
G1 X539.531 Y20.074 Z-0.121 F1016
G1 X539.525 Y20.013 Z-0.126 F1016
G1 X539.528 Y19.951 Z-0.132 F1016
G1 X539.538 Y19.891 Z-0.137 F1016
G1 X539.556 Y19.832 Z-0.142 F1016
G1 X539.581 Y19.776 Z-0.147 F1016
G1 X539.614 Y19.723 Z-0.153 F1016
G1 X539.653 Y19.676 Z-0.158 F1016
G1 X539.698 Y19.634 Z-0.163 F1016
G1 X539.748 Y19.597 Z-0.168 F1016
G1 X539.802 Y19.568 Z-0.174 F1016
G1 X539.86 Y19.546 Z-0.179 F1016
G1 X539.919 Y19.532 Z-0.184 F1016
G1 X539.981 Y19.525 Z-0.19 F1016
G1 X540.042 Y19.527 Z-0.195 F1016
G1 X540.103 Y19.536 Z-0.2 F1016
G1 X540.162 Y19.554 Z-0.205 F1016
G1 X540.219 Y19.578 Z-0.211 F1016
G1 X540.271 Y19.61 Z-0.216 F1016
G1 X540.32 Y19.649 Z-0.221 F1016
G1 X540.362 Y19.693 Z-0.226 F1016
G1 X540.399 Y19.742 Z-0.232 F1016
G1 X540.429 Y19.796 Z-0.237 F1016
G1 X540.452 Y19.853 Z-0.242 F1016
G1 X540.467 Y19.913 Z-0.247 F1016
G1 X540.474 Y19.974 Z-0.253 F1016
G1 Y20.036 Z-0.258 F1016
G1 X540.465 Y20.097 Z-0.263 F1016
G1 X540.449 Y20.156 Z-0.269 F1016
G1 X540.425 Y20.213 Z-0.274 F1016
G1 X540.393 Y20.266 Z-0.279 F1016
G1 X540.356 Y20.315 Z-0.284 F1016
G1 X540.312 Y20.358 Z-0.29 F1016
G1 X540.263 Y20.396 Z-0.295 F1016
G1 X540.21 Y20.426 Z-0.3 F1016
G1 X540.153 Y20.45 Z-0.305 F1016
G1 X540.093 Y20.466 Z-0.311 F1016
G1 X540.032 Y20.474 Z-0.316 F1016
G1 X539.971 Z-0.321 F1016
G1 X539.909 Y20.466 Z-0.326 F1016
G1 X539.85 Y20.451 Z-0.332 F1016
G1 X539.793 Y20.427 Z-0.337 F1016
G1 X539.739 Y20.397 Z-0.342 F1016
G1 X539.69 Y20.36 Z-0.347 F1016
G1 X539.646 Y20.317 Z-0.353 F1016
G1 X539.608 Y20.268 Z-0.358 F1016
G1 X539.577 Y20.215 Z-0.363 F1016
G1 X539.552 Y20.159 Z-0.369 F1016
G1 X539.536 Y20.099 Z-0.374 F1016
G1 X539.527 Y20.039 Z-0.379 F1016
G1 X539.526 Y19.977 Z-0.384 F1016
G1 X539.533 Y19.916 Z-0.39 F1016
G1 X539.547 Y19.856 Z-0.395 F1016
G1 X539.57 Y19.799 Z-0.4 F1016
G1 X539.6 Y19.745 Z-0.405 F1016
G1 X539.636 Y19.695 Z-0.411 F1016
G1 X539.678 Y19.65 Z-0.416 F1016
G1 X539.726 Y19.612 Z-0.421 F1016
G1 X539.779 Y19.58 Z-0.426 F1016
G1 X539.835 Y19.555 Z-0.432 F1016
G1 X539.894 Y19.537 Z-0.437 F1016
G1 X539.955 Y19.527 Z-0.442 F1016
G1 X540.017 Y19.525 Z-0.448 F1016
G1 X540.078 Y19.531 Z-0.453 F1016
G1 X540.138 Y19.545 Z-0.458 F1016
G1 X540.196 Y19.567 Z-0.463 F1016
G1 X540.25 Y19.596 Z-0.469 F1016
G1 X540.3 Y19.632 Z-0.474 F1016
G1 X540.345 Y19.674 Z-0.479 F1016
G1 X540.385 Y19.721 Z-0.484 F1016
G1 X540.417 Y19.773 Z-0.49 F1016
G1 X540.443 Y19.829 Z-0.495 F1016
G1 X540.462 Y19.888 Z-0.5 F1016
G1 X540.472 Y19.949 Z-0.505 F1016
G1 X540.475 Y20.01 Z-0.511 F1016
G1 X540.47 Y20.072 Z-0.516 F1016
G1 X540.456 Y20.132 Z-0.521 F1016
G1 X540.435 Y20.19 Z-0.527 F1016
G1 X540.407 Y20.244 Z-0.532 F1016
G1 X540.372 Y20.295 Z-0.537 F1016
G1 X540.331 Y20.341 Z-0.542 F1016
G1 X540.284 Y20.381 Z-0.548 F1016
G1 X540.232 Y20.414 Z-0.553 F1016
G1 X540.177 Y20.441 Z-0.558 F1016
G1 X540.118 Y20.46 Z-0.563 F1016
G1 X540.058 Y20.471 Z-0.569 F1016
G1 X539.996 Y20.475 Z-0.574 F1016
G1 X539.935 Y20.47 Z-0.579 F1016
G1 X539.874 Y20.458 Z-0.584 F1016
G1 X539.816 Y20.438 Z-0.59 F1016
G1 X539.761 Y20.41 Z-0.595 F1016
G1 X539.71 Y20.376 Z-0.6 F1016
G1 X539.664 Y20.335 Z-0.605 F1016
G1 X539.623 Y20.289 Z-0.611 F1016
G1 X539.589 Y20.238 Z-0.616 F1016
G1 X539.562 Y20.183 Z-0.621 F1016
G1 X539.542 Y20.124 Z-0.627 F1016
G1 X539.529 Y20.064 Z-0.632 F1016
G1 X539.525 Y20.003 Z-0.637 F1016
G1 X539.529 Y19.941 Z-0.642 F1016
G1 X539.54 Y19.881 Z-0.648 F1016
G1 X539.56 Y19.822 Z-0.653 F1016
G1 X539.586 Y19.767 Z-0.658 F1016
G1 X539.62 Y19.715 Z-0.663 F1016
G1 X539.66 Y19.668 Z-0.669 F1016
G1 X539.706 Y19.627 Z-0.674 F1016
G1 X539.757 Y19.592 Z-0.679 F1016
G1 X539.811 Y19.564 Z-0.684 F1016
G1 X539.869 Y19.543 Z-0.69 F1016
G1 X539.93 Y19.53 Z-0.695 F1016
G1 X539.991 Y19.525 Z-0.7 F1016
G1 X540.053 Y19.528 Z-0.706 F1016
G1 X540.113 Y19.539 Z-0.711 F1016
G1 X540.172 Y19.557 Z-0.716 F1016
G1 X540.228 Y19.583 Z-0.721 F1016
G1 X540.28 Y19.616 Z-0.727 F1016
G1 X540.327 Y19.656 Z-0.732 F1016
G1 X540.369 Y19.701 Z-0.737 F1016
G1 X540.405 Y19.751 Z-0.742 F1016
G1 X540.433 Y19.806 Z-0.748 F1016
G1 X540.455 Y19.863 Z-0.753 F1016
G1 X540.469 Y19.923 Z-0.758 F1016
G1 X540.475 Y19.985 Z-0.763 F1016
G1 X540.473 Y20.046 Z-0.769 F1016
G1 X540.463 Y20.107 Z-0.774 F1016
G1 X540.445 Y20.166 Z-0.779 F1016
G1 X540.42 Y20.222 Z-0.785 F1016
G1 X540.388 Y20.275 Z-0.79 F1016
G1 X540.349 Y20.322 Z-0.795 F1016
G1 X540.304 Y20.365 Z-0.8 F1016
G1 X540.254 Y20.401 Z-0.806 F1016
G1 X540.2 Y20.431 Z-0.811 F1016
G1 X540.143 Y20.453 Z-0.816 F1016
G1 X540.083 Y20.468 Z-0.821 F1016
G1 X540.022 Y20.474 Z-0.827 F1016
G1 X539.96 Y20.473 Z-0.832 F1016
G1 X539.899 Y20.464 Z-0.837 F1016
G1 X539.84 Y20.447 Z-0.842 F1016
G1 X539.784 Y20.423 Z-0.848 F1016
G1 X539.731 Y20.391 Z-0.853 F1016
G1 X539.682 Y20.353 Z-0.858 F1016
G1 X539.639 Y20.309 Z-0.863 F1016
G1 X539.602 Y20.26 Z-0.869 F1016
G1 X539.572 Y20.206 Z-0.874 F1016
G1 X539.549 Y20.149 Z-0.879 F1016
G1 X539.534 Y20.089 Z-0.885 F1016
G1 X539.526 Y20.028 Z-0.89 F1016
G1 Y19.967 Z-0.895 F1016
G1 X539.534 Y19.906 Z-0.9 F1016
G1 X539.551 Y19.846 Z-0.906 F1016
G1 X539.574 Y19.789 Z-0.911 F1016
G1 X539.605 Y19.736 Z-0.916 F1016
G1 X539.643 Y19.687 Z-0.921 F1016
G1 X539.686 Y19.644 Z-0.927 F1016
G1 X539.735 Y19.606 Z-0.932 F1016
G1 X539.788 Y19.575 Z-0.937 F1016
G1 X539.845 Y19.551 Z-0.942 F1016
G1 X539.904 Y19.535 Z-0.948 F1016
G1 X539.965 Y19.526 Z-0.953 F1016
G1 X540.027 Z-0.958 F1016
G1 X540.088 Y19.533 Z-0.964 F1016
G1 X540.148 Y19.549 Z-0.969 F1016
G1 X540.205 Y19.571 Z-0.974 F1016
G1 X540.259 Y19.602 Z-0.979 F1016
G1 X540.308 Y19.638 Z-0.985 F1016
G1 X540.352 Y19.681 Z-0.99 F1016
G1 X540.39 Y19.73 Z-0.995 F1016
G1 X540.422 Y19.782 Z-1 F1016
G1 X540.447 Y19.839 Z-1.006 F1016
G1 X540.464 Y19.898 Z-1.011 F1016
G1 X540.473 Y19.959 Z-1.016 F1016
G1 X540.475 Y20.02 Z-1.021 F1016
G1 X540.468 Y20.082 Z-1.027 F1016
G1 X540.453 Y20.142 Z-1.032 F1016
G1 X540.431 Y20.199 Z-1.037 F1016
G1 X540.402 Y20.253 Z-1.042 F1016
G1 X540.366 Y20.303 Z-1.048 F1016
G1 X540.323 Y20.348 Z-1.053 F1016
G1 X540.276 Y20.387 Z-1.058 F1016
G1 X540.223 Y20.419 Z-1.064 F1016
G1 X540.167 Y20.445 Z-1.069 F1016
G1 X540.108 Y20.462 Z-1.074 F1016
G1 X540.047 Y20.473 Z-1.079 F1016
G1 X539.986 Y20.475 Z-1.085 F1016
G1 X539.925 Y20.469 Z-1.09 F1016
G1 X539.865 Y20.455 Z-1.095 F1016
G1 X539.807 Y20.434 Z-1.1 F1016
G1 X539.752 Y20.405 Z-1.106 F1016
G1 X539.702 Y20.37 Z-1.111 F1016
G1 X539.657 Y20.328 Z-1.116 F1016
G1 X539.617 Y20.281 Z-1.121 F1016
G1 X539.584 Y20.229 Z-1.127 F1016
G1 X539.558 Y20.173 Z-1.132 F1016
G1 X539.539 Y20.114 Z-1.137 F1016
G1 X539.528 Y20.054 Z-1.143 F1016
G1 X539.525 Y19.992 Z-1.148 F1016
G1 X539.53 Y19.931 Z-1.153 F1016
G1 X539.543 Y19.871 Z-1.158 F1016
G1 X539.564 Y19.813 Z-1.164 F1016
G1 X539.591 Y19.758 Z-1.169 F1016
G1 X539.626 Y19.707 Z-1.174 F1016
G1 X539.667 Y19.661 Z-1.179 F1016
G1 X539.714 Y19.621 Z-1.185 F1016
G1 X539.765 Y19.587 Z-1.19 F1016
G1 X539.821 Y19.56 Z-1.195 F1016
G1 X539.879 Y19.541 Z-1.2 F1016
G1 X539.94 Y19.529 Z-1.206 F1016
G1 X540.001 Y19.525 Z-1.211 F1016
G1 X540.063 Y19.529 Z-1.216 F1016
G1 X540.123 Y19.541 Z-1.222 F1016
G1 X540.181 Y19.561 Z-1.227 F1016
G1 X540.237 Y19.588 Z-1.232 F1016
G1 X540.288 Y19.622 Z-1.237 F1016
G1 X540.334 Y19.663 Z-1.243 F1016
G1 X540.375 Y19.709 Z-1.248 F1016
G1 X540.41 Y19.76 Z-1.253 F1016
G1 X540.437 Y19.815 Z-1.258 F1016
G1 X540.458 Y19.873 Z-1.264 F1016
G1 X540.47 Y19.933 Z-1.269 F1016
G1 X540.475 Y19.995 Z-1.274 F1016
G1 X540.472 Y20.056 Z-1.279 F1016
G1 X540.46 Y20.117 Z-1.285 F1016
G1 X540.441 Y20.175 Z-1.29 F1016
G1 X540.415 Y20.231 Z-1.295 F1016
G1 X540.382 Y20.283 Z-1.3 F1016
G1 X540.342 Y20.33 Z-1.306 F1016
G1 X540.296 Y20.371 Z-1.311 F1016
G1 X540.246 Y20.407 Z-1.316 F1016
G1 X540.191 Y20.435 Z-1.322 F1016
G1 X540.133 Y20.456 Z-1.327 F1016
G1 X540.073 Y20.469 Z-1.332 F1016
G1 X540.012 Y20.475 Z-1.337 F1016
G1 X539.95 Y20.472 Z-1.343 F1016
G1 X539.889 Y20.462 Z-1.348 F1016
G1 X539.831 Y20.444 Z-1.353 F1016
G1 X539.775 Y20.418 Z-1.358 F1016
G1 X539.722 Y20.385 Z-1.364 F1016
G1 X539.675 Y20.346 Z-1.369 F1016
G1 X539.633 Y20.301 Z-1.374 F1016
G1 X539.597 Y20.251 Z-1.379 F1016
G1 X539.568 Y20.197 Z-1.385 F1016
G1 X539.546 Y20.139 Z-1.39 F1016
G1 X539.532 Y20.079 Z-1.395 F1016
G1 X539.525 Y20.018 Z-1.401 F1016
G1 X539.527 Y19.956 Z-1.406 F1016
G1 X539.537 Y19.896 Z-1.411 F1016
G1 X539.554 Y19.837 Z-1.416 F1016
G1 X539.579 Y19.78 Z-1.422 F1016
G1 X539.611 Y19.728 Z-1.427 F1016
G1 X539.649 Y19.68 Z-1.432 F1016
G1 X539.694 Y19.637 Z-1.437 F1016
G1 X539.743 Y19.6 Z-1.443 F1016
G1 X539.797 Y19.57 Z-1.448 F1016
G1 X539.855 Y19.548 Z-1.453 F1016
G1 X539.914 Y19.533 Z-1.458 F1016
G1 X539.976 Y19.526 Z-1.464 F1016
G1 X540.037 Z-1.469 F1016
G1 X540.098 Y19.535 Z-1.474 F1016
G1 X540.157 Y19.552 Z-1.48 F1016
G1 X540.214 Y19.576 Z-1.485 F1016
G1 X540.267 Y19.607 Z-1.49 F1016
G1 X540.316 Y19.645 Z-1.495 F1016
G1 X540.359 Y19.689 Z-1.501 F1016
G1 X540.396 Y19.738 Z-1.506 F1016
G1 X540.427 Y19.792 Z-1.511 F1016
G1 X540.45 Y19.849 Z-1.516 F1016
G1 X540.466 Y19.908 Z-1.522 F1016
G1 X540.474 Y19.969 Z-1.527 F1016
G1 Y20.031 Z-1.532 F1016
G1 X540.466 Y20.092 Z-1.537 F1016
G1 X540.45 Y20.151 Z-1.543 F1016
G1 X540.427 Y20.208 Z-1.548 F1016
G1 X540.396 Y20.262 Z-1.553 F1016
G1 X540.359 Y20.311 Z-1.558 F1016
G1 X540.316 Y20.355 Z-1.564 F1016
G1 X540.267 Y20.393 Z-1.569 F1016
G1 X540.214 Y20.424 Z-1.574 F1016
G1 X540.158 Y20.448 Z-1.58 F1016
G1 X540.098 Y20.465 Z-1.585 F1016
G1 X540.037 Y20.474 Z-1.59 F1016
G1 X539.976 Z-1.595 F1016
G1 X539.915 Y20.467 Z-1.601 F1016
G1 X539.855 Y20.452 Z-1.606 F1016
G1 X539.797 Y20.43 Z-1.611 F1016
G1 X539.744 Y20.4 Z-1.616 F1016
G1 X539.694 Y20.363 Z-1.622 F1016
G1 X539.65 Y20.321 Z-1.627 F1016
G1 X539.611 Y20.273 Z-1.632 F1016
G1 X539.579 Y20.22 Z-1.637 F1016
G1 X539.554 Y20.164 Z-1.643 F1016
G1 X539.537 Y20.105 Z-1.648 F1016
G1 X539.527 Y20.044 Z-1.653 F1016
G1 X539.525 Y19.982 Z-1.659 F1016
G1 X539.532 Y19.921 Z-1.664 F1016
G1 X539.546 Y19.861 Z-1.669 F1016
G1 X539.568 Y19.803 Z-1.674 F1016
G1 X539.597 Y19.749 Z-1.68 F1016
G1 X539.633 Y19.699 Z-1.685 F1016
G1 X539.675 Y19.654 Z-1.69 F1016
G1 X539.722 Y19.615 Z-1.695 F1016
G1 X539.774 Y19.582 Z-1.701 F1016
G1 X539.83 Y19.556 Z-1.706 F1016
G1 X539.889 Y19.538 Z-1.711 F1016
G1 X539.95 Y19.528 Z-1.716 F1016
G1 X540.011 Y19.525 Z-1.722 F1016
G1 X540.073 Y19.531 Z-1.727 F1016
G1 X540.133 Y19.544 Z-1.732 F1016
G1 X540.191 Y19.565 Z-1.737 F1016
G1 X540.246 Y19.593 Z-1.743 F1016
G1 X540.296 Y19.629 Z-1.748 F1016
G1 X540.342 Y19.67 Z-1.753 F1016
G1 X540.381 Y19.717 Z-1.759 F1016
G1 X540.415 Y19.769 Z-1.764 F1016
G1 X540.441 Y19.824 Z-1.769 F1016
G1 X540.46 Y19.883 Z-1.774 F1016
G1 X540.472 Y19.944 Z-1.78 F1016
G1 X540.475 Y20.005 Z-1.785 F1016
G1 X540.47 Y20.066 Z-1.79 F1016
G1 X540.458 Y20.127 Z-1.795 F1016
G1 X540.437 Y20.185 Z-1.801 F1016
G1 X540.41 Y20.24 Z-1.806 F1016
G1 X540.375 Y20.291 Z-1.811 F1016
G1 X540.335 Y20.337 Z-1.816 F1016
G1 X540.288 Y20.378 Z-1.822 F1016
G1 X540.237 Y20.412 Z-1.827 F1016
G1 X540.182 Y20.439 Z-1.832 F1016
G1 X540.123 Y20.459 Z-1.838 F1016
G1 X540.063 Y20.471 Z-1.843 F1016
G1 X540.001 Y20.475 Z-1.848 F1016
G1 X539.94 Y20.471 Z-1.853 F1016
G1 X539.879 Y20.459 Z-1.859 F1016
G1 X539.821 Y20.44 Z-1.864 F1016
G1 X539.766 Y20.413 Z-1.869 F1016
G1 X539.714 Y20.379 Z-1.874 F1016
G1 X539.667 Y20.339 Z-1.88 F1016
G1 X539.626 Y20.293 Z-1.885 F1016
G1 X539.592 Y20.242 Z-1.89 F1016
G1 X539.564 Y20.187 Z-1.895 F1016
G1 X539.543 Y20.129 Z-1.901 F1016
G1 X539.53 Y20.069 Z-1.906 F1016
G1 X539.525 Y20.008 Z-1.911 F1016
G1 X539.528 Y19.946 Z-1.917 F1016
G1 X539.539 Y19.886 Z-1.922 F1016
G1 X539.558 Y19.827 Z-1.927 F1016
G1 X539.584 Y19.771 Z-1.932 F1016
G1 X539.617 Y19.719 Z-1.938 F1016
G1 X539.656 Y19.672 Z-1.943 F1016
G1 X539.702 Y19.63 Z-1.948 F1016
G1 X539.752 Y19.595 Z-1.953 F1016
G1 X539.807 Y19.566 Z-1.959 F1016
G1 X539.864 Y19.545 Z-1.964 F1016
G1 X539.924 Y19.531 Z-1.969 F1016
G1 X539.986 Y19.525 Z-1.974 F1016
G1 X540.047 Y19.527 Z-1.98 F1016
G1 X540.108 Y19.537 Z-1.985 F1016
G1 X540.167 Y19.555 Z-1.99 F1016
G1 X540.223 Y19.581 Z-1.995 F1016
G1 X540.276 Y19.613 Z-2.001 F1016
G1 X540.323 Y19.652 Z-2.006 F1016
G1 X540.366 Y19.697 Z-2.011 F1016
G1 X540.402 Y19.747 Z-2.017 F1016
G1 X540.431 Y19.801 Z-2.022 F1016
G1 X540.453 Y19.858 Z-2.027 F1016
G1 X540.468 Y19.918 Z-2.032 F1016
G1 X540.475 Y19.979 Z-2.038 F1016
G1 X540.473 Y20.041 Z-2.043 F1016
G1 X540.464 Y20.102 Z-2.048 F1016
G1 X540.447 Y20.161 Z-2.053 F1016
G1 X540.422 Y20.217 Z-2.059 F1016
G1 X540.391 Y20.27 Z-2.064 F1016
G1 X540.352 Y20.319 Z-2.069 F1016
G1 X540.308 Y20.361 Z-2.074 F1016
G1 X540.259 Y20.398 Z-2.08 F1016
G1 X540.205 Y20.428 Z-2.085 F1016
G1 X540.148 Y20.451 Z-2.09 F1016
G1 X540.088 Y20.467 Z-2.096 F1016
G1 X540.027 Y20.474 Z-2.101 F1016
G1 X539.965 Z-2.106 F1016
G1 X539.904 Y20.465 Z-2.111 F1016
G1 X539.845 Y20.449 Z-2.117 F1016
G1 X539.788 Y20.425 Z-2.122 F1016
G1 X539.735 Y20.394 Z-2.127 F1016
G1 X539.686 Y20.357 Z-2.132 F1016
G1 X539.643 Y20.313 Z-2.138 F1016
G1 X539.605 Y20.264 Z-2.143 F1016
G1 X539.574 Y20.211 Z-2.148 F1016
G1 X539.551 Y20.154 Z-2.153 F1016
G1 X539.535 Y20.095 Z-2.159 F1016
G1 X539.526 Y20.033 Z-2.164 F1016
G1 Y19.972 Z-2.169 F1016
G1 X539.533 Y19.911 Z-2.175 F1016
G1 X539.549 Y19.851 Z-2.18 F1016
G1 X539.572 Y19.794 Z-2.185 F1016
G1 X539.602 Y19.74 Z-2.19 F1016
G1 X539.639 Y19.691 Z-2.196 F1016
G1 X539.682 Y19.647 Z-2.201 F1016
G1 X539.731 Y19.609 Z-2.206 F1016
G1 X539.783 Y19.577 Z-2.211 F1016
G1 X539.84 Y19.553 Z-2.217 F1016
G1 X539.899 Y19.536 Z-2.222 F1016
G1 X539.96 Y19.527 Z-2.227 F1016
G1 X540.022 Y19.526 Z-2.232 F1016
G1 X540.083 Y19.532 Z-2.238 F1016
G1 X540.143 Y19.547 Z-2.243 F1016
G1 X540.2 Y19.569 Z-2.248 F1016
G1 X540.254 Y19.599 Z-2.253 F1016
G1 X540.304 Y19.635 Z-2.259 F1016
G1 X540.349 Y19.677 Z-2.264 F1016
G1 X540.387 Y19.725 Z-2.269 F1016
G1 X540.42 Y19.778 Z-2.275 F1016
G1 X540.445 Y19.834 Z-2.28 F1016
G1 X540.463 Y19.893 Z-2.285 F1016
G1 X540.473 Y19.954 Z-2.29 F1016
G1 X540.475 Y20.015 Z-2.296 F1016
G1 X540.469 Y20.077 Z-2.301 F1016
G1 X540.455 Y20.137 Z-2.306 F1016
G1 X540.433 Y20.194 Z-2.311 F1016
G1 X540.405 Y20.249 Z-2.317 F1016
G1 X540.369 Y20.299 Z-2.322 F1016
G1 X540.327 Y20.344 Z-2.327 F1016
G1 X540.28 Y20.384 Z-2.332 F1016
G1 X540.228 Y20.417 Z-2.338 F1016
G1 X540.172 Y20.443 Z-2.343 F1016
G1 X540.113 Y20.461 Z-2.348 F1016
G1 X540.053 Y20.472 Z-2.354 F1016
G1 X539.991 Y20.475 Z-2.359 F1016
G1 X539.93 Y20.47 Z-2.364 F1016
G1 X539.87 Y20.457 Z-2.369 F1016
G1 X539.812 Y20.436 Z-2.375 F1016
G1 X539.757 Y20.408 Z-2.38 F1016
G1 X539.706 Y20.373 Z-2.385 F1016
G1 X539.66 Y20.332 Z-2.39 F1016
G1 X539.62 Y20.285 Z-2.396 F1016
G1 X539.586 Y20.234 Z-2.401 F1016
G1 X539.56 Y20.178 Z-2.406 F1016
G1 X539.54 Y20.12 Z-2.411 F1016
G1 X539.529 Y20.059 Z-2.417 F1016
G1 X539.525 Y19.998 Z-2.422 F1016
G1 X539.529 Y19.936 Z-2.427 F1016
G1 X539.542 Y19.876 Z-2.432 F1016
G1 X539.561 Y19.817 Z-2.438 F1016
G1 X539.589 Y19.762 Z-2.443 F1016
G1 X539.623 Y19.711 Z-2.448 F1016
G1 X539.664 Y19.665 Z-2.454 F1016
G1 X539.71 Y19.624 Z-2.459 F1016
G1 X539.761 Y19.59 Z-2.464 F1016
G1 X539.816 Y19.562 Z-2.469 F1016
G1 X539.874 Y19.542 Z-2.475 F1016
G1 X539.935 Y19.53 Z-2.48 F1016
G1 X539.996 Y19.525 Z-2.485 F1016
G1 X540.058 Y19.529 Z-2.49 F1016
G1 X540.118 Y19.54 Z-2.496 F1016
G1 X540.177 Y19.559 Z-2.501 F1016
G1 X540.232 Y19.586 Z-2.506 F1016
G1 X540.284 Y19.619 Z-2.511 F1016
G1 X540.331 Y19.659 Z-2.517 F1016
G1 X540.372 Y19.705 Z-2.522 F1016
G1 X540.407 Y19.755 Z-2.527 F1016
G1 X540.435 Y19.81 Z-2.533 F1016
G1 X540.456 Y19.868 Z-2.538 F1016
G1 X540.47 Y19.928 Z-2.543 F1016
G1 X540.475 Y19.99 Z-2.548 F1016
G1 X540.472 Y20.051 Z-2.554 F1016
G1 X540.462 Y20.112 Z-2.559 F1016
G1 X540.443 Y20.171 Z-2.564 F1016
G1 X540.417 Y20.227 Z-2.569 F1016
G1 X540.385 Y20.279 Z-2.575 F1016
G1 X540.345 Y20.326 Z-2.58 F1016
G1 X540.3 Y20.368 Z-2.585 F1016
G1 X540.25 Y20.404 Z-2.59 F1016
G1 X540.196 Y20.433 Z-2.596 F1016
G1 X540.138 Y20.454 Z-2.601 F1016
G1 X540.078 Y20.469 Z-2.606 F1016
G1 X540.017 Y20.475 Z-2.612 F1016
G1 X539.955 Y20.473 Z-2.617 F1016
G1 X539.894 Y20.463 Z-2.622 F1016
G1 X539.835 Y20.446 Z-2.627 F1016
G1 X539.779 Y20.421 Z-2.633 F1016
G1 X539.727 Y20.388 Z-2.638 F1016
G1 X539.679 Y20.35 Z-2.643 F1016
G1 X539.636 Y20.305 Z-2.648 F1016
G1 X539.6 Y20.256 Z-2.654 F1016
G1 X539.57 Y20.202 Z-2.659 F1016
G1 X539.547 Y20.144 Z-2.664 F1016
G1 X539.533 Y20.084 Z-2.669 F1016
G1 X539.526 Y20.023 Z-2.675 F1016
G1 X539.527 Y19.962 Z-2.68 F1016
G1 X539.536 Y19.901 Z-2.685 F1016
G1 X539.552 Y19.841 Z-2.69 F1016
G1 X539.577 Y19.785 Z-2.696 F1016
G1 X539.608 Y19.732 Z-2.701 F1016
G1 X539.646 Y19.683 Z-2.706 F1016
G1 X539.69 Y19.64 Z-2.712 F1016
G1 X539.739 Y19.603 Z-2.717 F1016
G1 X539.793 Y19.573 Z-2.722 F1016
G1 X539.85 Y19.549 Z-2.727 F1016
G1 X539.909 Y19.534 Z-2.733 F1016
G1 X539.97 Y19.526 Z-2.738 F1016
G1 X540.032 Z-2.743 F1016
G1 X540.093 Y19.534 Z-2.748 F1016
G1 X540.152 Y19.55 Z-2.754 F1016
G1 X540.209 Y19.574 Z-2.759 F1016
G1 X540.263 Y19.604 Z-2.764 F1016
G1 X540.312 Y19.642 Z-2.769 F1016
G1 X540.356 Y19.685 Z-2.775 F1016
G1 X540.393 Y19.734 Z-2.78 F1016
G1 X540.424 Y19.787 Z-2.785 F1016
G1 X540.448 Y19.844 Z-2.791 F1016
G1 X540.465 Y19.903 Z-2.796 F1016
G1 X540.474 Y19.964 Z-2.801 F1016
G1 Y20.026 Z-2.806 F1016
G1 X540.467 Y20.087 Z-2.812 F1016
G1 X540.452 Y20.146 Z-2.817 F1016
G1 X540.429 Y20.204 Z-2.822 F1016
G1 X540.399 Y20.257 Z-2.827 F1016
G1 X540.362 Y20.307 Z-2.833 F1016
G1 X540.32 Y20.351 Z-2.838 F1016
G1 X540.272 Y20.39 Z-2.843 F1016
G1 X540.219 Y20.422 Z-2.848 F1016
G1 X540.162 Y20.446 Z-2.854 F1016
G1 X540.103 Y20.464 Z-2.859 F1016
G1 X540.042 Y20.473 Z-2.864 F1016
G1 X539.981 Y20.475 Z-2.869 F1016
G1 X539.92 Y20.468 Z-2.875 F1016
G1 X539.86 Y20.454 Z-2.88 F1016
G1 X539.802 Y20.432 Z-2.885 F1016
G1 X539.748 Y20.403 Z-2.891 F1016
G1 X539.698 Y20.367 Z-2.896 F1016
G1 X539.653 Y20.324 Z-2.901 F1016
G1 X539.614 Y20.277 Z-2.906 F1016
G1 X539.581 Y20.225 Z-2.912 F1016
G1 X539.556 Y20.168 Z-2.917 F1016
G1 X539.538 Y20.11 Z-2.922 F1016
G1 X539.528 Y20.049 Z-2.927 F1016
G1 X539.525 Y19.987 Z-2.933 F1016
G1 X539.531 Y19.926 Z-2.938 F1016
G1 X539.544 Y19.866 Z-2.943 F1016
G1 X539.566 Y19.808 Z-2.948 F1016
G1 X539.594 Y19.753 Z-2.954 F1016
G1 X539.629 Y19.703 Z-2.959 F1016
G1 X539.671 Y19.658 Z-2.964 F1016
G1 X539.718 Y19.618 Z-2.97 F1016
G1 X539.77 Y19.585 Z-2.975 F1016
G1 X539.826 Y19.558 Z-2.98 F1016
G1 X539.884 Y19.539 Z-2.985 F1016
G1 X539.945 Y19.528 Z-2.991 F1016
G1 X540.006 Y19.525 Z-2.996 F1016
G1 X540.068 Y19.53 Z-3.001 F1016
G1 X540.128 Y19.543 Z-3.006 F1016
G1 X540.186 Y19.563 Z-3.012 F1016
G1 X540.241 Y19.591 Z-3.017 F1016
G1 X540.292 Y19.625 Z-3.022 F1016
G1 X540.338 Y19.666 Z-3.027 F1016
G1 X540.378 Y19.713 Z-3.033 F1016
G1 X540.412 Y19.764 Z-3.038 F1016
G1 X540.439 Y19.82 Z-3.043 F1016
G1 X540.459 Y19.878 Z-3.049 F1016
G1 X540.471 Y19.938 Z-3.054 F1016
G1 X540.475 Y20 Z-3.059 F1016
G1 X540.471 Y20.061 Z-3.064 F1016
G1 X540.459 Y20.122 Z-3.07 F1016
G1 X540.439 Y20.18 Z-3.075 F1016
G1 X540.412 Y20.235 Z-3.08 F1016
G1 X540.379 Y20.287 Z-3.085 F1016
G1 X540.338 Y20.333 Z-3.091 F1016
G1 X540.292 Y20.374 Z-3.096 F1016
G1 X540.241 Y20.409 Z-3.101 F1016
G1 X540.186 Y20.437 Z-3.106 F1016
G1 X540.128 Y20.457 Z-3.112 F1016
G1 X540.068 Y20.47 Z-3.117 F1016
G1 X540.007 Y20.475 Z-3.122 F1016
G1 X539.945 Y20.472 Z-3.127 F1016
G1 X539.884 Y20.461 Z-3.133 F1016
G1 X539.826 Y20.442 Z-3.138 F1016
G1 X539.77 Y20.416 Z-3.143 F1016
G1 X539.718 Y20.382 Z-3.149 F1016
G1 X539.671 Y20.343 Z-3.154 F1016
G1 X539.63 Y20.297 Z-3.159 F1016
G1 X539.594 Y20.247 Z-3.164 F1016
G1 X539.566 Y20.192 Z-3.17 F1016
G1 X539.544 Y20.134 Z-3.175 F1016
G1 X539.531 Y20.074 Z-3.18 F1016
G1 X539.525 Y20.013 Z-3.185 F1016
G1 X539.528 Y19.951 Z-3.191 F1016
G1 X539.538 Y19.891 Z-3.196 F1016
G1 X539.556 Y19.832 Z-3.201 F1016
G1 X539.581 Y19.776 Z-3.206 F1016
G1 X539.614 Y19.723 Z-3.212 F1016
G1 X539.653 Y19.676 Z-3.217 F1016
G1 X539.698 Y19.634 Z-3.222 F1016
G1 X539.748 Y19.598 Z-3.228 F1016
G1 X539.802 Y19.568 Z-3.233 F1016
G1 X539.859 Y19.546 Z-3.238 F1016
G1 X539.919 Y19.532 Z-3.243 F1016
G1 X539.981 Y19.525 Z-3.249 F1016
G1 X540.042 Y19.527 Z-3.254 F1016
G1 X540.103 Y19.536 Z-3.259 F1016
G1 X540.162 Y19.554 Z-3.264 F1016
G1 X540.219 Y19.578 Z-3.27 F1016
G1 X540.271 Y19.61 Z-3.275 F1016
G1 X540.319 Y19.649 Z-3.28 F1016
G1 X540.362 Y19.693 Z-3.285 F1016
G1 X540.399 Y19.742 Z-3.291 F1016
G1 X540.429 Y19.796 Z-3.296 F1016
G1 X540.452 Y19.853 Z-3.301 F1016
G1 X540.467 Y19.913 Z-3.307 F1016
G1 X540.474 Y19.974 Z-3.312 F1016
G1 Y20.036 Z-3.317 F1016
G1 X540.465 Y20.097 Z-3.322 F1016
G1 X540.449 Y20.156 Z-3.328 F1016
G1 X540.425 Y20.213 Z-3.333 F1016
G1 X540.394 Y20.266 Z-3.338 F1016
G1 X540.356 Y20.315 Z-3.343 F1016
G1 X540.312 Y20.358 Z-3.349 F1016
G1 X540.263 Y20.395 Z-3.354 F1016
G1 X540.21 Y20.426 Z-3.359 F1016
G1 X540.153 Y20.45 Z-3.364 F1016
G1 X540.093 Y20.466 Z-3.37 F1016
G1 X540.032 Y20.474 Z-3.375 F1016
G1 X539.971 Z-3.38 F1016
G1 X539.91 Y20.466 Z-3.385 F1016
G1 X539.85 Y20.451 Z-3.391 F1016
G1 X539.793 Y20.427 Z-3.396 F1016
G1 X539.739 Y20.397 Z-3.401 F1016
G1 X539.69 Y20.36 Z-3.407 F1016
G1 X539.646 Y20.317 Z-3.412 F1016
G1 X539.608 Y20.268 Z-3.417 F1016
G1 X539.577 Y20.215 Z-3.422 F1016
G1 X539.552 Y20.159 Z-3.428 F1016
G1 X539.536 Y20.1 Z-3.433 F1016
G1 X539.527 Y20.039 Z-3.438 F1016
G1 X539.526 Y19.977 Z-3.443 F1016
G1 X539.533 Y19.916 Z-3.449 F1016
G1 X539.547 Y19.856 Z-3.454 F1016
G1 X539.57 Y19.799 Z-3.459 F1016
G1 X539.599 Y19.745 Z-3.464 F1016
G1 X539.636 Y19.695 Z-3.47 F1016
G1 X539.678 Y19.65 Z-3.475 F1016
G1 X539.726 Y19.612 Z-3.48 F1016
G1 X539.779 Y19.58 Z-3.486 F1016
G1 X539.835 Y19.555 Z-3.491 F1016
G1 X539.894 Y19.537 Z-3.496 F1016
G1 X539.955 Y19.527 Z-3.501 F1016
G1 X540.016 Y19.525 Z-3.507 F1016
G1 X540.078 Y19.531 Z-3.512 F1016
G1 X540.138 Y19.545 Z-3.517 F1016
G1 X540.195 Y19.567 Z-3.522 F1016
G1 X540.25 Y19.596 Z-3.528 F1016
G1 X540.3 Y19.632 Z-3.533 F1016
G1 X540.345 Y19.674 Z-3.538 F1016
G1 X540.384 Y19.721 Z-3.543 F1016
G1 X540.417 Y19.773 Z-3.549 F1016
G1 X540.443 Y19.829 Z-3.554 F1016
G1 X540.462 Y19.888 Z-3.559 F1016
G1 X540.472 Y19.949 Z-3.564 F1016
G1 X540.475 Y20.01 Z-3.57 F1016
G1 X540.47 Y20.071 Z-3.575 F1016
G1 X540.456 Y20.132 Z-3.58 F1016
G1 X540.436 Y20.19 Z-3.586 F1016
G1 X540.407 Y20.244 Z-3.591 F1016
G1 X540.372 Y20.295 Z-3.596 F1016
G1 X540.331 Y20.341 Z-3.601 F1016
G1 X540.284 Y20.381 Z-3.607 F1016
G1 X540.232 Y20.414 Z-3.612 F1016
G1 X540.177 Y20.441 Z-3.617 F1016
G1 X540.118 Y20.46 Z-3.622 F1016
G1 X540.058 Y20.471 Z-3.628 F1016
G1 X539.996 Y20.475 Z-3.633 F1016
G1 X539.935 Y20.47 Z-3.638 F1016
G1 X539.875 Y20.458 Z-3.643 F1016
G1 X539.816 Y20.438 Z-3.649 F1016
G1 X539.761 Y20.411 Z-3.654 F1016
G1 X539.71 Y20.376 Z-3.659 F1016
G1 X539.664 Y20.336 Z-3.665 F1016
G1 X539.623 Y20.289 Z-3.67 F1016
G1 X539.589 Y20.238 Z-3.675 F1016
G1 X539.562 Y20.183 Z-3.68 F1016
G1 X539.542 Y20.125 Z-3.686 F1016
G1 X539.529 Y20.064 Z-3.691 F1016
G1 X539.525 Y20.003 Z-3.696 F1016
G1 X539.529 Y19.941 Z-3.701 F1016
G1 X539.54 Y19.881 Z-3.707 F1016
G1 X539.56 Y19.822 Z-3.712 F1016
G1 X539.586 Y19.767 Z-3.717 F1016
G1 X539.62 Y19.715 Z-3.722 F1016
G1 X539.66 Y19.668 Z-3.728 F1016
G1 X539.706 Y19.627 Z-3.733 F1016
G1 X539.756 Y19.592 Z-3.738 F1016
G1 X539.811 Y19.564 Z-3.744 F1016
G1 X539.869 Y19.543 Z-3.749 F1016
G1 X539.929 Y19.53 Z-3.754 F1016
G1 X539.991 Y19.525 Z-3.759 F1016
G1 X540.052 Y19.528 Z-3.765 F1016
G1 X540.113 Y19.539 Z-3.77 F1016
G1 X540.172 Y19.557 Z-3.775 F1016
G1 X540.228 Y19.583 Z-3.78 F1016
G1 X540.28 Y19.616 Z-3.786 F1016
G1 X540.327 Y19.655 Z-3.791 F1016
G1 X540.369 Y19.701 Z-3.796 F1016
G1 X540.404 Y19.751 Z-3.801 F1016
G1 X540.433 Y19.805 Z-3.807 F1016
G1 X540.455 Y19.863 Z-3.812 F1016
G1 X540.469 Y19.923 Z-3.817 F1016
G1 X540.475 Y19.984 Z-3.822 F1016
G1 X540.473 Y20.046 Z-3.828 F1016
G1 X540.463 Y20.107 Z-3.833 F1016
G1 X540.445 Y20.166 Z-3.838 F1016
G1 X540.42 Y20.222 Z-3.844 F1016
G1 X540.388 Y20.274 Z-3.849 F1016
G1 X540.349 Y20.322 Z-3.854 F1016
G1 X540.304 Y20.365 Z-3.859 F1016
G1 X540.255 Y20.401 Z-3.865 F1016
G1 X540.2 Y20.431 Z-3.87 F1016
G1 X540.143 Y20.453 Z-3.875 F1016
G1 X540.083 Y20.468 Z-3.88 F1016
G1 X540.022 Y20.474 Z-3.886 F1016
G1 X539.96 Y20.473 Z-3.891 F1016
G1 X539.9 Y20.464 Z-3.896 F1016
G1 X539.84 Y20.447 Z-3.901 F1016
G1 X539.784 Y20.423 Z-3.907 F1016
G1 X539.731 Y20.391 Z-3.912 F1016
G1 X539.682 Y20.353 Z-3.917 F1016
G1 X539.639 Y20.309 Z-3.923 F1016
G1 X539.602 Y20.26 Z-3.928 F1016
G1 X539.572 Y20.206 Z-3.933 F1016
G1 X539.549 Y20.149 Z-3.938 F1016
G1 X539.534 Y20.09 Z-3.944 F1016
G1 X539.526 Y20.028 Z-3.949 F1016
G1 Y19.967 Z-3.954 F1016
G1 X539.534 Y19.906 Z-3.959 F1016
G1 X539.551 Y19.846 Z-3.965 F1016
G1 X539.574 Y19.79 Z-3.97 F1016
G1 X539.605 Y19.736 Z-3.975 F1016
G1 X539.642 Y19.687 Z-3.98 F1016
G1 X539.686 Y19.644 Z-3.986 F1016
G1 X539.735 Y19.606 Z-3.991 F1016
G1 X539.788 Y19.575 Z-3.996 F1016
G1 X539.845 Y19.551 Z-4.002 F1016
G1 X539.904 Y19.535 Z-4.007 F1016
G1 X539.965 Y19.526 Z-4.012 F1016
G1 X540.027 Z-4.017 F1016
G1 X540.088 Y19.533 Z-4.023 F1016
G1 X540.148 Y19.549 Z-4.028 F1016
G1 X540.205 Y19.571 Z-4.033 F1016
G1 X540.258 Y19.602 Z-4.038 F1016
G1 X540.308 Y19.638 Z-4.044 F1016
G1 X540.352 Y19.681 Z-4.049 F1016
G1 X540.39 Y19.729 Z-4.054 F1016
G1 X540.422 Y19.782 Z-4.059 F1016
G1 X540.447 Y19.839 Z-4.065 F1016
G1 X540.464 Y19.898 Z-4.07 F1016
G1 X540.473 Y19.959 Z-4.075 F1016
G1 X540.475 Y20.02 Z-4.08 F1016
G1 X540.468 Y20.082 Z-4.086 F1016
G1 X540.453 Y20.141 Z-4.091 F1016
G1 X540.431 Y20.199 Z-4.096 F1016
G1 X540.402 Y20.253 Z-4.102 F1016
G1 X540.366 Y20.303 Z-4.107 F1016
G1 X540.324 Y20.348 Z-4.112 F1016
G1 X540.276 Y20.387 Z-4.117 F1016
G1 X540.223 Y20.419 Z-4.123 F1016
G1 X540.167 Y20.445 Z-4.128 F1016
G1 X540.108 Y20.462 Z-4.133 F1016
G1 X540.048 Y20.473 Z-4.138 F1016
G1 X539.986 Y20.475 Z-4.144 F1016
G1 X539.925 Y20.469 Z-4.149 F1016
G1 X539.865 Y20.455 Z-4.154 F1016
G1 X539.807 Y20.434 Z-4.159 F1016
G1 X539.752 Y20.405 Z-4.165 F1016
G1 X539.702 Y20.37 Z-4.17 F1016
G1 X539.657 Y20.328 Z-4.175 F1016
G1 X539.617 Y20.281 Z-4.181 F1016
G1 X539.584 Y20.229 Z-4.186 F1016
G1 X539.558 Y20.173 Z-4.191 F1016
G1 X539.539 Y20.115 Z-4.196 F1016
G1 X539.528 Y20.054 Z-4.202 F1016
G1 X539.525 Y19.993 Z-4.207 F1016
G1 X539.53 Y19.931 Z-4.212 F1016
G1 X539.543 Y19.871 Z-4.217 F1016
G1 X539.563 Y19.813 Z-4.223 F1016
G1 X539.591 Y19.758 Z-4.228 F1016
G1 X539.626 Y19.707 Z-4.233 F1016
G1 X539.667 Y19.661 Z-4.238 F1016
G1 X539.714 Y19.621 Z-4.244 F1016
G1 X539.765 Y19.587 Z-4.249 F1016
G1 X539.821 Y19.56 Z-4.254 F1016
G1 X539.879 Y19.541 Z-4.259 F1016
G1 X539.94 Y19.529 Z-4.265 F1016
G1 X540.001 Y19.525 Z-4.27 F1016
G1 X540.062 Y19.529 Z-4.275 F1016
G1 X540.123 Y19.541 Z-4.281 F1016
G1 X540.181 Y19.561 Z-4.286 F1016
G1 X540.237 Y19.588 Z-4.291 F1016
G1 X540.288 Y19.622 Z-4.296 F1016
G1 X540.334 Y19.663 Z-4.302 F1016
G1 X540.375 Y19.709 Z-4.307 F1016
G1 X540.41 Y19.76 Z-4.312 F1016
G1 X540.437 Y19.815 Z-4.317 F1016
G1 X540.458 Y19.873 Z-4.323 F1016
G1 X540.47 Y19.933 Z-4.328 F1016
G1 X540.475 Y19.995 Z-4.333 F1016
G1 X540.472 Y20.056 Z-4.338 F1016
G1 X540.46 Y20.117 Z-4.344 F1016
G1 X540.441 Y20.175 Z-4.349 F1016
G1 X540.415 Y20.231 Z-4.354 F1016
G1 X540.382 Y20.283 Z-4.36 F1016
G1 X540.342 Y20.33 Z-4.365 F1016
G1 X540.296 Y20.371 Z-4.37 F1016
G1 X540.246 Y20.406 Z-4.375 F1016
G1 X540.191 Y20.435 Z-4.381 F1016
G1 X540.133 Y20.456 Z-4.386 F1016
G1 X540.073 Y20.469 Z-4.391 F1016
G1 X540.012 Y20.475 Z-4.396 F1016
G1 X539.95 Y20.472 Z-4.402 F1016
G1 X539.89 Y20.462 Z-4.407 F1016
G1 X539.831 Y20.444 Z-4.412 F1016
G1 X539.775 Y20.418 Z-4.417 F1016
G1 X539.722 Y20.385 Z-4.423 F1016
G1 X539.675 Y20.346 Z-4.428 F1016
G1 X539.633 Y20.301 Z-4.433 F1016
G1 X539.597 Y20.251 Z-4.439 F1016
G1 X539.568 Y20.197 Z-4.444 F1016
G1 X539.546 Y20.139 Z-4.449 F1016
G1 X539.532 Y20.079 Z-4.454 F1016
G1 X539.525 Y20.018 Z-4.46 F1016
G1 X539.527 Y19.957 Z-4.465 F1016
G1 X539.537 Y19.896 Z-4.47 F1016
G1 X539.554 Y19.837 Z-4.475 F1016
G1 X539.579 Y19.78 Z-4.481 F1016
G1 X539.611 Y19.728 Z-4.486 F1016
G1 X539.649 Y19.68 Z-4.491 F1016
G1 X539.694 Y19.637 Z-4.496 F1016
G1 X539.743 Y19.6 Z-4.502 F1016
G1 X539.797 Y19.571 Z-4.507 F1016
G1 X539.854 Y19.548 Z-4.512 F1016
G1 X539.914 Y19.533 Z-4.517 F1016
G1 X539.975 Y19.526 Z-4.523 F1016
G1 X540.037 Z-4.528 F1016
G1 X540.098 Y19.535 Z-4.533 F1016
G1 X540.157 Y19.552 Z-4.539 F1016
G1 X540.214 Y19.576 Z-4.544 F1016
G1 X540.267 Y19.607 Z-4.549 F1016
G1 X540.316 Y19.645 Z-4.554 F1016
G1 X540.359 Y19.689 Z-4.56 F1016
G1 X540.396 Y19.738 Z-4.565 F1016
G1 X540.427 Y19.791 Z-4.57 F1016
G1 X540.45 Y19.848 Z-4.575 F1016
G1 X540.466 Y19.908 Z-4.581 F1016
G1 X540.474 Y19.969 Z-4.586 F1016
G1 Y20.031 Z-4.591 F1016
G1 X540.466 Y20.092 Z-4.596 F1016
G1 X540.45 Y20.151 Z-4.602 F1016
G1 X540.427 Y20.208 Z-4.607 F1016
G1 X540.396 Y20.262 Z-4.612 F1016
G1 X540.359 Y20.311 Z-4.618 F1016
G1 X540.316 Y20.355 Z-4.623 F1016
G1 X540.267 Y20.393 Z-4.628 F1016
G1 X540.214 Y20.424 Z-4.633 F1016
G1 X540.158 Y20.448 Z-4.639 F1016
G1 X540.098 Y20.465 Z-4.644 F1016
G1 X540.037 Y20.473 Z-4.649 F1016
G1 X539.976 Y20.474 Z-4.654 F1016
G1 X539.915 Y20.467 Z-4.66 F1016
G1 X539.855 Y20.452 Z-4.665 F1016
G1 X539.798 Y20.43 Z-4.67 F1016
G1 X539.744 Y20.4 Z-4.675 F1016
G1 X539.694 Y20.363 Z-4.681 F1016
G1 X539.65 Y20.321 Z-4.686 F1016
G1 X539.611 Y20.273 Z-4.691 F1016
G1 X539.579 Y20.22 Z-4.697 F1016
G1 X539.554 Y20.164 Z-4.702 F1016
G1 X539.537 Y20.105 Z-4.707 F1016
G1 X539.527 Y20.044 Z-4.712 F1016
G1 X539.525 Y19.982 Z-4.718 F1016
G1 X539.532 Y19.921 Z-4.723 F1016
G1 X539.546 Y19.861 Z-4.728 F1016
G1 X539.568 Y19.803 Z-4.733 F1016
G1 X539.597 Y19.749 Z-4.739 F1016
G1 X539.633 Y19.699 Z-4.744 F1016
G1 X539.675 Y19.654 Z-4.749 F1016
G1 X539.722 Y19.615 Z-4.754 F1016
G1 X539.774 Y19.582 Z-4.76 F1016
G1 X539.83 Y19.556 Z-4.765 F1016
G1 X539.889 Y19.538 Z-4.77 F1016
G1 X539.95 Y19.528 Z-4.775 F1016
G1 X540.011 Y19.525 Z-4.781 F1016
G1 X540.073 Y19.531 Z-4.786 F1016
G1 X540.133 Y19.544 Z-4.791 F1016
G1 X540.191 Y19.565 Z-4.797 F1016
G1 X540.245 Y19.593 Z-4.802 F1016
G1 X540.296 Y19.628 Z-4.807 F1016
G1 X540.342 Y19.67 Z-4.812 F1016
G1 X540.381 Y19.717 Z-4.818 F1016
G1 X540.415 Y19.769 Z-4.823 F1016
G1 X540.441 Y19.824 Z-4.828 F1016
G1 X540.46 Y19.883 Z-4.833 F1016
G1 X540.472 Y19.943 Z-4.839 F1016
G1 X540.475 Y20.005 Z-4.844 F1016
G1 X540.47 Y20.066 Z-4.849 F1016
G1 X540.458 Y20.127 Z-4.854 F1016
G1 X540.438 Y20.185 Z-4.86 F1016
G1 X540.41 Y20.24 Z-4.865 F1016
G1 X540.375 Y20.291 Z-4.87 F1016
G1 X540.335 Y20.337 Z-4.876 F1016
G1 X540.288 Y20.378 Z-4.881 F1016
G1 X540.237 Y20.412 Z-4.886 F1016
G1 X540.182 Y20.439 Z-4.891 F1016
G1 X540.123 Y20.459 Z-4.897 F1016
G1 X540.063 Y20.471 Z-4.902 F1016
G1 X540.002 Y20.475 Z-4.907 F1016
G1 X539.94 Y20.471 Z-4.912 F1016
G1 X539.88 Y20.459 Z-4.918 F1016
G1 X539.821 Y20.44 Z-4.923 F1016
G1 X539.766 Y20.413 Z-4.928 F1016
G1 X539.714 Y20.379 Z-4.933 F1016
G1 X539.668 Y20.339 Z-4.939 F1016
G1 X539.626 Y20.293 Z-4.944 F1016
G1 X539.592 Y20.243 Z-4.949 F1016
G1 X539.564 Y20.188 Z-4.954 F1016
G1 X539.543 Y20.13 Z-4.96 F1016
G1 X539.53 Y20.069 Z-4.965 F1016
G1 X539.525 Y20.008 Z-4.97 F1016
G1 X539.528 Y19.946 Z-4.976 F1016
G1 X539.539 Y19.886 Z-4.981 F1016
G1 X539.558 Y19.827 Z-4.986 F1016
G1 X539.584 Y19.771 Z-4.991 F1016
G1 X539.617 Y19.719 Z-4.997 F1016
G1 X539.656 Y19.672 Z-5.002 F1016
G1 X539.702 Y19.63 Z-5.007 F1016
G1 X539.752 Y19.595 Z-5.012 F1016
G1 X539.806 Y19.566 Z-5.018 F1016
G1 X539.864 Y19.545 Z-5.023 F1016
G1 X539.924 Y19.531 Z-5.028 F1016
G1 X539.986 Y19.525 Z-5.033 F1016
G1 X540.047 Y19.527 Z-5.039 F1016
G1 X540.108 Y19.537 Z-5.044 F1016
G1 X540.167 Y19.555 Z-5.049 F1016
G1 X540.223 Y19.581 Z-5.055 F1016
G1 X540.275 Y19.613 Z-5.06 F1016
G1 X540.323 Y19.652 Z-5.065 F1016
G1 X540.365 Y19.697 Z-5.07 F1016
G1 X540.402 Y19.747 Z-5.076 F1016
G1 X540.431 Y19.801 Z-5.081 F1016
G1 X540.453 Y19.858 Z-5.086 F1016
G1 X540.468 Y19.918 Z-5.091 F1016
G1 X540.475 Y19.979 Z-5.097 F1016
G1 X540.473 Y20.041 Z-5.102 F1016
G1 X540.464 Y20.102 Z-5.107 F1016
G1 X540.447 Y20.161 Z-5.112 F1016
G1 X540.422 Y20.217 Z-5.118 F1016
G1 X540.391 Y20.27 Z-5.123 F1016
G1 X540.352 Y20.318 Z-5.128 F1016
G1 X540.308 Y20.361 Z-5.134 F1016
G1 X540.259 Y20.398 Z-5.139 F1016
G1 X540.205 Y20.428 Z-5.144 F1016
G1 X540.148 Y20.451 Z-5.149 F1016
G1 X540.088 Y20.467 Z-5.155 F1016
G1 X540.027 Y20.474 Z-5.16 F1016
G1 X539.966 Z-5.165 F1016
G1 X539.905 Y20.465 Z-5.17 F1016
G1 X539.845 Y20.449 Z-5.176 F1016
G1 X539.788 Y20.425 Z-5.181 F1016
G1 X539.735 Y20.394 Z-5.186 F1016
G1 X539.686 Y20.357 Z-5.191 F1016
G1 X539.643 Y20.313 Z-5.197 F1016
G1 X539.605 Y20.264 Z-5.202 F1016
G1 X539.574 Y20.211 Z-5.207 F1016
G1 X539.551 Y20.154 Z-5.212 F1016
G1 X539.535 Y20.095 Z-5.218 F1016
G1 X539.526 Y20.034 Z-5.223 F1016
G1 Y19.972 Z-5.228 F1016
G1 X539.533 Y19.911 Z-5.234 F1016
G1 X539.549 Y19.851 Z-5.239 F1016
G1 X539.572 Y19.794 Z-5.244 F1016
G1 X539.602 Y19.741 Z-5.249 F1016
G1 X539.639 Y19.691 Z-5.255 F1016
G1 X539.682 Y19.647 Z-5.26 F1016
G1 X539.73 Y19.609 Z-5.265 F1016
G1 X539.783 Y19.577 Z-5.27 F1016
G1 X539.84 Y19.553 Z-5.276 F1016
G1 X539.899 Y19.536 Z-5.281 F1016
G1 X539.96 Y19.527 Z-5.286 F1016
G1 X540.022 Y19.526 Z-5.291 F1016
G1 X540.083 Y19.532 Z-5.297 F1016
G1 X540.143 Y19.547 Z-5.302 F1016
G1 X540.2 Y19.569 Z-5.307 F1016
G1 X540.254 Y19.599 Z-5.313 F1016
G1 X540.304 Y19.635 Z-5.318 F1016
G1 X540.349 Y19.677 Z-5.323 F1016
G1 X540.387 Y19.725 Z-5.328 F1016
G1 X540.42 Y19.778 Z-5.334 F1016
G1 X540.445 Y19.834 Z-5.339 F1016
G1 X540.463 Y19.893 Z-5.344 F1016
G1 X540.473 Y19.954 Z-5.349 F1016
G1 X540.475 Y20.015 Z-5.355 F1016
G1 X540.469 Y20.076 Z-5.36 F1016
G1 X540.455 Y20.136 Z-5.365 F1016
G1 X540.433 Y20.194 Z-5.37 F1016
G1 X540.405 Y20.249 Z-5.376 F1016
G1 X540.369 Y20.299 Z-5.381 F1016
G1 X540.327 Y20.344 Z-5.386 F1016
G1 X540.28 Y20.384 Z-5.392 F1016
G1 X540.228 Y20.417 Z-5.397 F1016
G1 X540.172 Y20.443 Z-5.402 F1016
G1 X540.113 Y20.461 Z-5.407 F1016
G1 X540.053 Y20.472 Z-5.413 F1016
G1 X539.991 Y20.475 Z-5.418 F1016
G1 X539.93 Y20.47 Z-5.423 F1016
G1 X539.87 Y20.457 Z-5.428 F1016
G1 X539.812 Y20.436 Z-5.434 F1016
G1 X539.757 Y20.408 Z-5.439 F1016
G1 X539.706 Y20.373 Z-5.444 F1016
G1 X539.66 Y20.332 Z-5.449 F1016
G1 X539.62 Y20.285 Z-5.455 F1016
G1 X539.586 Y20.234 Z-5.46 F1016
G1 X539.56 Y20.178 Z-5.465 F1016
G1 X539.54 Y20.12 Z-5.47 F1016
G1 X539.529 Y20.059 Z-5.476 F1016
G1 X539.525 Y19.998 Z-5.481 F1016
G1 X539.529 Y19.936 Z-5.486 F1016
G1 X539.542 Y19.876 Z-5.492 F1016
G1 X539.561 Y19.818 Z-5.497 F1016
G1 X539.589 Y19.762 Z-5.502 F1016
G1 X539.623 Y19.711 Z-5.507 F1016
G1 X539.663 Y19.665 Z-5.513 F1016
G1 X539.71 Y19.624 Z-5.518 F1016
G1 X539.761 Y19.59 Z-5.523 F1016
G1 X539.816 Y19.562 Z-5.528 F1016
G1 X539.874 Y19.542 Z-5.534 F1016
G1 X539.934 Y19.53 Z-5.539 F1016
G1 X539.996 Y19.525 Z-5.544 F1016
G1 X540.057 Y19.528 Z-5.549 F1016
G1 X540.118 Y19.54 Z-5.555 F1016
G1 X540.176 Y19.559 Z-5.56 F1016
G1 X540.232 Y19.586 Z-5.565 F1016
G1 X540.284 Y19.619 Z-5.571 F1016
G1 X540.331 Y19.659 Z-5.576 F1016
G1 X540.372 Y19.705 Z-5.581 F1016
G1 X540.407 Y19.755 Z-5.586 F1016
G1 X540.435 Y19.81 Z-5.592 F1016
G1 X540.456 Y19.868 Z-5.597 F1016
G1 X540.469 Y19.928 Z-5.602 F1016
G1 X540.475 Y19.989 Z-5.607 F1016
G1 X540.472 Y20.051 Z-5.613 F1016
G1 X540.462 Y20.112 Z-5.618 F1016
G1 X540.443 Y20.17 Z-5.623 F1016
G1 X540.418 Y20.226 Z-5.628 F1016
G1 X540.385 Y20.279 Z-5.634 F1016
G1 X540.345 Y20.326 Z-5.639 F1016
G1 X540.3 Y20.368 Z-5.644 F1016
G1 X540.25 Y20.404 Z-5.649 F1016
G1 X540.196 Y20.433 Z-5.655 F1016
G1 X540.138 Y20.454 Z-5.66 F1016
G1 X540.078 Y20.468 Z-5.665 F1016
G1 X540.017 Y20.475 Z-5.671 F1016
G1 X539.955 Y20.473 Z-5.676 F1016
G1 X539.895 Y20.463 Z-5.681 F1016
G1 X539.836 Y20.446 Z-5.686 F1016
G1 X539.779 Y20.421 Z-5.692 F1016
G1 X539.727 Y20.388 Z-5.697 F1016
G1 X539.679 Y20.35 Z-5.702 F1016
G1 X539.636 Y20.305 Z-5.707 F1016
G1 X539.6 Y20.256 Z-5.713 F1016
G1 X539.57 Y20.202 Z-5.718 F1016
G1 X539.548 Y20.144 Z-5.723 F1016
G1 X539.533 Y20.085 Z-5.728 F1016
G1 X539.526 Y20.023 Z-5.734 F1016
G1 X539.527 Y19.962 Z-5.739 F1016
G1 X539.535 Y19.901 Z-5.744 F1016
G1 X539.552 Y19.842 Z-5.75 F1016
G1 X539.576 Y19.785 Z-5.755 F1016
G1 X539.608 Y19.732 Z-5.76 F1016
G1 X539.646 Y19.684 Z-5.765 F1016
G1 X539.69 Y19.64 Z-5.771 F1016
G1 X539.739 Y19.603 Z-5.776 F1016
G1 X539.792 Y19.573 Z-5.781 F1016
G1 X539.849 Y19.549 Z-5.786 F1016
G1 X539.909 Y19.534 Z-5.792 F1016
G1 X539.97 Y19.526 Z-5.797 F1016
G1 X540.032 Z-5.802 F1016
G1 X540.093 Y19.534 Z-5.807 F1016
G1 X540.152 Y19.55 Z-5.813 F1016
G1 X540.209 Y19.574 Z-5.818 F1016
G1 X540.263 Y19.604 Z-5.823 F1016
G1 X540.312 Y19.642 Z-5.829 F1016
G1 X540.355 Y19.685 Z-5.834 F1016
G1 X540.393 Y19.734 Z-5.839 F1016
G1 X540.424 Y19.787 Z-5.844 F1016
G1 X540.448 Y19.843 Z-5.85 F1016
G1 X540.465 Y19.903 Z-5.855 F1016
G1 X540.474 Y19.964 Z-5.86 F1016
G1 Y20.025 Z-5.865 F1016
G1 X540.467 Y20.087 Z-5.871 F1016
G1 X540.452 Y20.146 Z-5.876 F1016
G1 X540.429 Y20.203 Z-5.881 F1016
G1 X540.399 Y20.257 Z-5.886 F1016
G1 X540.363 Y20.307 Z-5.892 F1016
G1 X540.32 Y20.351 Z-5.897 F1016
G1 X540.272 Y20.39 Z-5.902 F1016
G1 X540.219 Y20.421 Z-5.907 F1016
G1 X540.163 Y20.446 Z-5.913 F1016
G1 X540.104 Y20.464 Z-5.918 F1016
G1 X540.043 Y20.473 Z-5.923 F1016
G1 X539.981 Y20.475 Z-5.929 F1016
G1 X539.92 Y20.468 Z-5.934 F1016
G1 X539.86 Y20.454 Z-5.939 F1016
G1 X539.802 Y20.432 Z-5.944 F1016
G1 X539.748 Y20.403 Z-5.95 F1016
G1 X539.698 Y20.367 Z-5.955 F1016
G1 X539.653 Y20.325 Z-5.96 F1016
G1 X539.614 Y20.277 Z-5.965 F1016
G1 X539.582 Y20.225 Z-5.971 F1016
G1 X539.556 Y20.169 Z-5.976 F1016
G1 X539.538 Y20.11 Z-5.981 F1016
G1 X539.528 Y20.049 Z-5.986 F1016
G1 X539.525 Y19.987 Z-5.992 F1016
G1 X539.531 Y19.926 Z-5.997 F1016
G1 X539.544 Y19.866 Z-6.002 F1016
G1 X539.565 Y19.808 Z-6.008 F1016
G1 X539.594 Y19.754 Z-6.013 F1016
G1 X539.629 Y19.703 Z-6.018 F1016
G1 X539.671 Y19.658 Z-6.023 F1016
G1 X539.718 Y19.618 Z-6.029 F1016
G1 X539.77 Y19.585 Z-6.034 F1016
G1 X539.825 Y19.558 Z-6.039 F1016
G1 X539.884 Y19.539 Z-6.044 F1016
G1 X539.945 Y19.528 Z-6.05 F1016
G1 X540.006 Y19.525 Z-6.055 F1016
G1 X540.067 Y19.53 Z-6.06 F1016
G1 X540.128 Y19.543 Z-6.065 F1016
G1 X540.186 Y19.563 Z-6.071 F1016
G1 X540.241 Y19.591 Z-6.076 F1016
G1 X540.292 Y19.625 Z-6.081 F1016
G1 X540.338 Y19.666 Z-6.086 F1016
G1 X540.378 Y19.713 Z-6.092 F1016
G1 X540.412 Y19.764 Z-6.097 F1016
G1 X540.439 Y19.819 Z-6.102 F1016
G1 X540.459 Y19.878 Z-6.108 F1016
G1 X540.471 Y19.938 Z-6.113 F1016
G1 X540.475 Y20 Z-6.118 F1016
G1 X540.471 Y20.061 Z-6.123 F1016
G1 X540.459 Y20.122 Z-6.129 F1016
G1 X540.44 Y20.18 Z-6.134 F1016
G1 X540.413 Y20.235 Z-6.139 F1016
G1 X540.379 Y20.287 Z-6.144 F1016
G1 X540.338 Y20.333 Z-6.15 F1016
G1 X540.292 Y20.374 Z-6.155 F1016
G1 X540.241 Y20.409 Z-6.16 F1016
G1 X540.187 Y20.437 Z-6.165 F1016
G1 X540.128 Y20.457 Z-6.171 F1016
G1 X540.068 Y20.47 Z-6.176 F1016
G1 X540.007 Y20.475 Z-6.181 F1016
G1 X539.945 Y20.472 Z-6.187 F1016
G1 X539.885 Y20.461 Z-6.192 F1016
G1 X539.826 Y20.442 Z-6.197 F1016
G1 X539.77 Y20.416 Z-6.202 F1016
G1 X539.718 Y20.383 Z-6.208 F1016
G1 X539.671 Y20.343 Z-6.213 F1016
G1 X539.63 Y20.297 Z-6.218 F1016
G1 X539.594 Y20.247 Z-6.223 F1016
G1 X539.566 Y20.192 Z-6.229 F1016
G1 X539.544 Y20.135 Z-6.234 F1016
G1 X539.531 Y20.075 Z-6.239 F1016
G1 X539.525 Y20.013 Z-6.244 F1016
G1 X539.527 Y19.952 Z-6.25 F1016
G1 X539.538 Y19.891 Z-6.255 F1016
G1 X539.556 Y19.832 Z-6.26 F1016
G1 X539.581 Y19.776 Z-6.266 F1016
G1 X539.614 Y19.724 Z-6.271 F1016
G1 X539.653 Y19.676 Z-6.276 F1016
G1 X539.698 Y19.634 Z-6.281 F1016
G1 X539.748 Y19.598 Z-6.287 F1016
G1 X539.802 Y19.568 Z-6.292 F1016
G1 X539.859 Y19.546 Z-6.297 F1016
G1 X539.919 Y19.532 Z-6.302 F1016
G1 X539.98 Y19.525 Z-6.308 F1016
G1 X540.042 Y19.527 Z-6.313 F1016
G1 X540.103 Y19.536 Z-6.318 F1016
G1 X540.162 Y19.553 Z-6.323 F1016
G1 X540.218 Y19.578 Z-6.329 F1016
G1 X540.271 Y19.61 Z-6.334 F1016
G1 X540.319 Y19.648 Z-6.339 F1016
G1 X540.362 Y19.693 Z-6.344 F1016
G1 X540.399 Y19.742 Z-6.35 F1016
G1 X540.429 Y19.796 Z-6.355 F1016
G1 X540.452 Y19.853 Z-6.36 F1016
G1 X540.467 Y19.913 Z-6.366 F1016
G1 X540.474 Y19.974 Z-6.371 F1016
G1 Y20.036 Z-6.376 F1016
G1 X540.465 Y20.097 Z-6.381 F1016
G1 X540.449 Y20.156 Z-6.387 F1016
G1 X540.425 Y20.213 Z-6.392 F1016
G1 X540.394 Y20.266 Z-6.397 F1016
G1 X540.356 Y20.315 Z-6.402 F1016
G1 X540.312 Y20.358 Z-6.408 F1016
G1 X540.263 Y20.395 Z-6.413 F1016
G1 X540.21 Y20.426 Z-6.418 F1016
G1 X540.153 Y20.45 Z-6.423 F1016
G1 X540.093 Y20.466 Z-6.429 F1016
G1 X540.032 Y20.474 Z-6.434 F1016
G1 X539.971 Z-6.439 F1016
G1 X539.91 Y20.466 Z-6.445 F1016
G1 X539.85 Y20.451 Z-6.45 F1016
G1 X539.793 Y20.428 Z-6.455 F1016
G1 X539.739 Y20.397 Z-6.46 F1016
G1 X539.69 Y20.36 Z-6.466 F1016
G1 X539.646 Y20.317 Z-6.471 F1016
G1 X539.608 Y20.269 Z-6.476 F1016
G1 X539.577 Y20.216 Z-6.481 F1016
G1 X539.552 Y20.159 Z-6.487 F1016
G1 X539.536 Y20.1 Z-6.492 F1016
G1 X539.527 Y20.039 Z-6.497 F1016
G1 X539.526 Y19.977 Z-6.502 F1016
G1 X539.532 Y19.916 Z-6.508 F1016
G1 X539.547 Y19.856 Z-6.513 F1016
G1 X539.57 Y19.799 Z-6.518 F1016
G1 X539.599 Y19.745 Z-6.524 F1016
G1 X539.636 Y19.695 Z-6.529 F1016
G1 X539.678 Y19.651 Z-6.534 F1016
G1 X539.726 Y19.612 Z-6.539 F1016
G1 X539.779 Y19.58 Z-6.545 F1016
G1 X539.835 Y19.555 Z-6.55 F1016
G1 X539.894 Y19.537 Z-6.555 F1016
G1 X539.955 Y19.527 Z-6.56 F1016
G1 X540.016 Y19.525 Z-6.566 F1016
G1 X540.078 Y19.531 Z-6.571 F1016
G1 X540.138 Y19.545 Z-6.576 F1016
G1 X540.195 Y19.567 Z-6.581 F1016
G1 X540.25 Y19.596 Z-6.587 F1016
G1 X540.3 Y19.632 Z-6.592 F1016
G1 X540.345 Y19.674 Z-6.597 F1016
G1 X540.384 Y19.721 Z-6.602 F1016
G1 X540.417 Y19.773 Z-6.608 F1016
G1 X540.443 Y19.829 Z-6.613 F1016
G1 X540.462 Y19.888 Z-6.618 F1016
G1 X540.472 Y19.948 Z-6.624 F1016
G1 X540.475 Y20.01 Z-6.629 F1016
G1 X540.47 Y20.071 Z-6.634 F1016
G1 X540.456 Y20.131 Z-6.639 F1016
G1 X540.436 Y20.189 Z-6.645 F1016
G1 X540.407 Y20.244 Z-6.65 F1016
G1 X540.372 Y20.295 Z-6.655 F1016
G1 X540.331 Y20.341 Z-6.66 F1016
G1 X540.284 Y20.381 Z-6.666 F1016
G1 X540.233 Y20.414 Z-6.671 F1016
G1 X540.177 Y20.441 Z-6.676 F1016
G1 X540.119 Y20.46 Z-6.681 F1016
G1 X540.058 Y20.471 Z-6.687 F1016
G1 X539.997 Y20.475 Z-6.692 F1016
G1 X539.935 Y20.471 Z-6.697 F1016
G1 X539.875 Y20.458 Z-6.703 F1016
G1 X539.817 Y20.438 Z-6.708 F1016
G1 X539.761 Y20.411 Z-6.713 F1016
G1 X539.71 Y20.376 Z-6.718 F1016
G1 X539.664 Y20.336 Z-6.724 F1016
G1 X539.623 Y20.289 Z-6.729 F1016
G1 X539.589 Y20.238 Z-6.734 F1016
G1 X539.562 Y20.183 Z-6.739 F1016
G1 X539.542 Y20.125 Z-6.745 F1016
G1 X539.529 Y20.064 Z-6.75 F1016
G1 X539.525 Y20.003 Z-6.755 F1016
G1 X539.529 Y19.941 Z-6.76 F1016
G1 X539.54 Y19.881 Z-6.766 F1016
G1 X539.559 Y19.822 Z-6.771 F1016
G1 X539.586 Y19.767 Z-6.776 F1016
G1 X539.62 Y19.715 Z-6.781 F1016
G1 X539.66 Y19.669 Z-6.787 F1016
G1 X539.706 Y19.627 Z-6.792 F1016
G1 X539.756 Y19.592 Z-6.797 F1016
G1 X539.811 Y19.564 Z-6.803 F1016
G1 X539.869 Y19.543 Z-6.808 F1016
G1 X539.929 Y19.53 Z-6.813 F1016
G1 X539.991 Y19.525 Z-6.818 F1016
G1 X540.052 Y19.528 Z-6.824 F1016
G1 X540.113 Y19.539 Z-6.829 F1016
G1 X540.172 Y19.557 Z-6.834 F1016
G1 X540.227 Y19.583 Z-6.839 F1016
G1 X540.279 Y19.616 Z-6.845 F1016
G1 X540.327 Y19.655 Z-6.85 F1016
G1 X540.369 Y19.701 Z-6.855 F1016
G1 X540.404 Y19.751 Z-6.86 F1016
G1 X540.433 Y19.805 Z-6.866 F1016
G1 X540.455 Y19.863 Z-6.871 F1016
G1 X540.469 Y19.923 Z-6.876 F1016
G1 X540.475 Y19.984 Z-6.882 F1016
G1 X540.473 Y20.046 Z-6.887 F1016
G1 X540.463 Y20.107 Z-6.892 F1016
G1 X540.445 Y20.166 Z-6.897 F1016
G1 X540.42 Y20.222 Z-6.903 F1016
G1 X540.388 Y20.274 Z-6.908 F1016
G1 X540.349 Y20.322 Z-6.913 F1016
G1 X540.304 Y20.365 Z-6.918 F1016
G1 X540.255 Y20.401 Z-6.924 F1016
G1 X540.201 Y20.431 Z-6.929 F1016
G1 X540.143 Y20.453 Z-6.934 F1016
G1 X540.083 Y20.468 Z-6.939 F1016
G1 X540.022 Y20.474 Z-6.945 F1016
G1 X539.961 Y20.473 Z-6.95 F1016
G1 X539.9 Y20.464 Z-6.955 F1016
G1 X539.84 Y20.447 Z-6.961 F1016
G1 X539.784 Y20.423 Z-6.966 F1016
G1 X539.731 Y20.391 Z-6.971 F1016
G1 X539.683 Y20.353 Z-6.976 F1016
G1 X539.64 Y20.309 Z-6.982 F1016
G1 X539.603 Y20.26 Z-6.987 F1016
G1 X539.572 Y20.206 Z-6.992 F1016
G1 X539.549 Y20.149 Z-6.997 F1016
G1 X539.534 Y20.09 Z-7.003 F1016
G1 X539.526 Y20.029 Z-7.008 F1016
G1 Y19.967 Z-7.013 F1016
G1 X539.534 Y19.906 Z-7.018 F1016
G1 X539.55 Y19.847 Z-7.024 F1016
G1 X539.574 Y19.79 Z-7.029 F1016
G1 X539.605 Y19.736 Z-7.034 F1016
G1 X539.642 Y19.687 Z-7.039 F1016
G1 X539.686 Y19.644 Z-7.045 F1016
G1 X539.735 Y19.606 Z-7.05 F1016
G1 X539.788 Y19.575 Z-7.055 F1016
G1 X539.845 Y19.551 Z-7.061 F1016
G1 X539.904 Y19.535 Z-7.066 F1016
G1 X539.965 Y19.526 Z-7.071 F1016
G1 X540.027 Z-7.076 F1016
G1 X540.088 Y19.533 Z-7.082 F1016
G1 X540.147 Y19.548 Z-7.087 F1016
G1 X540.205 Y19.571 Z-7.092 F1016
G1 X540.258 Y19.601 Z-7.097 F1016
G1 X540.308 Y19.638 Z-7.103 F1016
G1 X540.352 Y19.681 Z-7.108 F1016
G1 X540.39 Y19.729 Z-7.113 F1016
G1 X540.422 Y19.782 Z-7.118 F1016
G1 X540.447 Y19.839 Z-7.124 F1016
G1 X540.464 Y19.898 Z-7.129 F1016
G1 X540.473 Y19.959 Z-7.134 F1016
G1 X540.475 Y20.02 Z-7.14 F1016
G1 X540.468 Y20.081 Z-7.145 F1016
G1 X540.453 Y20.141 Z-7.15 F1016
G1 X540.431 Y20.199 Z-7.155 F1016
G1 X540.402 Y20.253 Z-7.161 F1016
G1 X540.366 Y20.303 Z-7.166 F1016
G1 X540.324 Y20.348 Z-7.171 F1016
G1 X540.276 Y20.387 Z-7.176 F1016
G1 X540.224 Y20.419 Z-7.182 F1016
G1 X540.168 Y20.444 Z-7.187 F1016
G1 X540.109 Y20.462 Z-7.192 F1016
G1 X540.048 Y20.473 Z-7.197 F1016
G1 X539.986 Y20.475 Z-7.203 F1016
G1 X539.925 Y20.469 Z-7.208 F1016
G1 X539.865 Y20.455 Z-7.213 F1016
G1 X539.807 Y20.434 Z-7.219 F1016
G1 X539.753 Y20.405 Z-7.224 F1016
G1 X539.702 Y20.37 Z-7.229 F1016
G1 X539.657 Y20.328 Z-7.234 F1016
G1 X539.617 Y20.281 Z-7.24 F1016
G1 X539.584 Y20.229 Z-7.245 F1016
G1 X539.558 Y20.174 Z-7.25 F1016
G1 X539.539 Y20.115 Z-7.255 F1016
G1 X539.528 Y20.054 Z-7.261 F1016
G1 X539.525 Y19.993 Z-7.266 F1016
G1 X539.53 Y19.931 Z-7.271 F1016
G1 X539.543 Y19.871 Z-7.276 F1016
G1 X539.563 Y19.813 Z-7.282 F1016
G1 X539.591 Y19.758 Z-7.287 F1016
G1 X539.626 Y19.707 Z-7.292 F1016
G1 X539.667 Y19.661 Z-7.297 F1016
G1 X539.714 Y19.621 Z-7.303 F1016
G1 X539.765 Y19.587 Z-7.308 F1016
G1 X539.821 Y19.56 Z-7.313 F1016
G1 X539.879 Y19.541 Z-7.319 F1016
G1 X539.939 Y19.529 Z-7.324 F1016
G1 X540.001 Y19.525 Z-7.329 F1016
G1 X540.062 Y19.529 Z-7.334 F1016
G1 X540.123 Y19.541 Z-7.34 F1016
G1 X540.181 Y19.561 Z-7.345 F1016
G1 X540.236 Y19.588 Z-7.35 F1016
G1 X540.288 Y19.622 Z-7.355 F1016
G1 X540.334 Y19.662 Z-7.361 F1016
G1 X540.375 Y19.709 Z-7.366 F1016
G1 X540.41 Y19.76 Z-7.371 F1016
G1 X540.437 Y19.815 Z-7.376 F1016
G1 X540.458 Y19.873 Z-7.382 F1016
G1 X540.47 Y19.933 Z-7.387 F1016
G1 X540.475 Y19.994 Z-7.392 F1016
G1 X540.472 Y20.056 Z-7.398 F1016
G1 X540.46 Y20.117 Z-7.403 F1016
G1 X540.442 Y20.175 Z-7.408 F1016
G1 X540.415 Y20.231 Z-7.413 F1016
G1 X540.382 Y20.283 Z-7.419 F1016
G1 X540.342 Y20.33 Z-7.424 F1016
G1 X540.296 Y20.371 Z-7.429 F1016
G1 X540.246 Y20.406 Z-7.434 F1016
G1 X540.191 Y20.435 Z-7.44 F1016
G1 X540.133 Y20.456 Z-7.445 F1016
G1 X540.073 Y20.469 Z-7.45 F1016
G1 X540.012 Y20.475 Z-7.455 F1016
G1 X539.95 Y20.472 Z-7.461 F1016
G1 X539.89 Y20.462 Z-7.466 F1016
G1 X539.831 Y20.444 Z-7.471 F1016
G1 X539.775 Y20.418 Z-7.476 F1016
G1 X539.723 Y20.386 Z-7.482 F1016
G1 X539.675 Y20.346 Z-7.487 F1016
G1 X539.633 Y20.301 Z-7.492 F1016
G1 X539.597 Y20.251 Z-7.498 F1016
G1 X539.568 Y20.197 Z-7.503 F1016
G1 X539.546 Y20.14 Z-7.508 F1016
G1 X539.532 Y20.08 Z-7.513 F1016
G1 X539.525 Y20.018 Z-7.519 F1016
G1 X539.527 Y19.957 Z-7.524 F1016
G1 X539.537 Y19.896 Z-7.529 F1016
G1 X539.554 Y19.837 Z-7.534 F1016
G1 X539.579 Y19.781 Z-7.54 F1016
G1 X539.611 Y19.728 Z-7.545 F1016
G1 X539.649 Y19.68 Z-7.55 F1016
G1 X539.694 Y19.637 Z-7.555 F1016
G1 X539.743 Y19.6 Z-7.561 F1016
G1 X539.797 Y19.571 Z-7.566 F1016
G1 X539.854 Y19.548 Z-7.571 F1016
G1 X539.914 Y19.533 Z-7.577 F1016
G1 X539.975 Y19.526 Z-7.582 F1016
G1 X540.037 Z-7.587 F1016
G1 X540.098 Y19.535 Z-7.592 F1016
G1 X540.157 Y19.552 Z-7.598 F1016
G1 X540.214 Y19.576 Z-7.603 F1016
G1 X540.267 Y19.607 Z-7.608 F1016
G1 X540.315 Y19.645 Z-7.613 F1016
G1 X540.359 Y19.689 Z-7.619 F1016
G1 X540.396 Y19.738 Z-7.624 F1016
G1 X540.427 Y19.791 Z-7.629 F1016
G1 X540.45 Y19.848 Z-7.634 F1016
G1 X540.466 Y19.908 Z-7.64 F1016
G1 X540.474 Y19.969 Z-7.645 F1016
G1 Y20.03 Z-7.65 F1016
G1 X540.466 Y20.091 Z-7.656 F1016
G1 X540.45 Y20.151 Z-7.661 F1016
G1 X540.427 Y20.208 Z-7.666 F1016
G1 X540.397 Y20.262 Z-7.671 F1016
G1 X540.359 Y20.311 Z-7.677 F1016
G1 X540.316 Y20.355 Z-7.682 F1016
G1 X540.268 Y20.392 Z-7.687 F1016
G1 X540.215 Y20.424 Z-7.692 F1016
G1 X540.158 Y20.448 Z-7.698 F1016
G1 X540.099 Y20.465 Z-7.703 F1016
G1 X540.038 Y20.473 Z-7.708 F1016
G1 X539.976 Y20.474 Z-7.713 F1016
G1 X539.915 Y20.467 Z-7.719 F1016
G1 X539.855 Y20.452 Z-7.724 F1016
G1 X539.798 Y20.43 Z-7.729 F1016
G1 X539.744 Y20.4 Z-7.734 F1016
G1 X539.694 Y20.363 Z-7.74 F1016
G1 X539.65 Y20.321 Z-7.745 F1016
G1 X539.611 Y20.273 Z-7.75 F1016
G1 X539.579 Y20.22 Z-7.756 F1016
G1 X539.554 Y20.164 Z-7.761 F1016
G1 X539.537 Y20.105 Z-7.766 F1016
G1 X539.527 Y20.044 Z-7.771 F1016
G1 X539.525 Y19.982 Z-7.777 F1016
G1 X539.532 Y19.921 Z-7.782 F1016
G1 X539.546 Y19.861 Z-7.787 F1016
G1 X539.568 Y19.804 Z-7.792 F1016
G1 X539.597 Y19.749 Z-7.798 F1016
G1 X539.632 Y19.699 Z-7.803 F1016
G1 X539.674 Y19.654 Z-7.808 F1016
G1 X539.722 Y19.615 Z-7.813 F1016
G1 X539.774 Y19.582 Z-7.819 F1016
G1 X539.83 Y19.556 Z-7.824 F1016
G1 X539.889 Y19.538 Z-7.829 F1016
G1 X539.95 Y19.528 Z-7.835 F1016
G1 X540.011 Y19.525 Z-7.84 F1016
G1 X540.072 Y19.531 Z-7.845 F1016
G1 X540.133 Y19.544 Z-7.85 F1016
G1 X540.191 Y19.565 Z-7.856 F1016
G1 X540.245 Y19.593 Z-7.861 F1016
G1 X540.296 Y19.628 Z-7.866 F1016
G1 X540.341 Y19.67 Z-7.871 F1016
G1 X540.381 Y19.717 Z-7.877 F1016
G1 X540.415 Y19.768 Z-7.882 F1016
G1 X540.441 Y19.824 Z-7.887 F1016
G1 X540.46 Y19.883 Z-7.892 F1016
G1 X540.472 Y19.943 Z-7.898 F1016
G1 X540.475 Y20.005 Z-7.903 F1016
G1 X540.47 Y20.066 Z-7.908 F1016
G1 X540.458 Y20.126 Z-7.914 F1016
G1 X540.438 Y20.185 Z-7.919 F1016
G1 X540.41 Y20.24 Z-7.924 F1016
G1 X540.376 Y20.291 Z-7.929 F1016
G1 X540.335 Y20.337 Z-7.935 F1016
G1 X540.288 Y20.377 Z-7.94 F1016
G1 X540.237 Y20.412 Z-7.945 F1016
G1 X540.182 Y20.439 Z-7.95 F1016
G1 X540.124 Y20.459 Z-7.956 F1016
G1 X540.063 Y20.471 Z-7.961 F1016
G1 X540.002 Y20.475 Z-7.966 F1016
G1 X539.94 Y20.471 Z-7.971 F1016
G1 X539.88 Y20.46 Z-7.977 F1016
G1 X539.821 Y20.44 Z-7.982 F1016
G1 X539.766 Y20.413 Z-7.987 F1016
G1 X539.714 Y20.379 Z-7.992 F1016
G1 X539.668 Y20.339 Z-7.998 F1016
G1 X539.627 Y20.293 Z-8.003 F1016
G1 X539.592 Y20.243 Z-8.008 F1016
G1 X539.564 Y20.188 Z-8.014 F1016
G1 X539.543 Y20.13 Z-8.019 F1016
G1 X539.53 Y20.07 Z-8.024 F1016
G1 X539.525 Y20.008 Z-8.029 F1016
G1 X539.528 Y19.947 Z-8.035 F1016
G1 X539.539 Y19.886 Z-8.04 F1016
G1 X539.558 Y19.827 Z-8.045 F1016
G1 X539.584 Y19.771 Z-8.05 F1016
G1 X539.617 Y19.72 Z-8.056 F1016
G1 X539.656 Y19.672 Z-8.061 F1016
G1 X539.701 Y19.631 Z-8.066 F1016
G1 X539.752 Y19.595 Z-8.071 F1016
G1 X539.806 Y19.566 Z-8.077 F1016
G1 X539.864 Y19.545 Z-8.082 F1016
G1 X539.924 Y19.531 Z-8.087 F1016
G1 X539.985 Y19.525 Z-8.093 F1016
G1 X540.047 Y19.527 Z-8.098 F1016
G1 X540.108 Y19.537 Z-8.103 F1016
G1 X540.167 Y19.555 Z-8.108 F1016
G1 X540.223 Y19.581 Z-8.114 F1016
G1 X540.275 Y19.613 Z-8.119 F1016
G1 X540.323 Y19.652 Z-8.124 F1016
G1 X540.365 Y19.697 Z-8.129 F1016
G1 X540.402 Y19.746 Z-8.135 F1016
G1 X540.431 Y19.8 Z-8.14 F1016
G1 X540.453 Y19.858 Z-8.145 F1016
G1 X540.468 Y19.918 Z-8.15 F1016
G1 X540.475 Y19.979 Z-8.156 F1016
G1 X540.473 Y20.041 Z-8.161 F1016
G1 X540.464 Y20.101 Z-8.166 F1016
G1 X540.447 Y20.161 Z-8.171 F1016
G1 X540.422 Y20.217 Z-8.177 F1016
G1 X540.391 Y20.27 Z-8.182 F1016
G1 X540.353 Y20.318 Z-8.187 F1016
G1 X540.308 Y20.361 Z-8.193 F1016
G1 X540.259 Y20.398 Z-8.198 F1016
G1 X540.205 Y20.428 Z-8.203 F1016
G1 X540.148 Y20.451 Z-8.208 F1016
G1 X540.089 Y20.467 Z-8.214 F1016
G1 X540.027 Y20.474 Z-8.219 F1016
G1 X539.966 Z-8.224 F1016
G1 X539.905 Y20.465 Z-8.229 F1016
G1 X539.845 Y20.449 Z-8.235 F1016
G1 X539.789 Y20.425 Z-8.24 F1016
G1 X539.735 Y20.394 Z-8.245 F1016
G1 X539.686 Y20.357 Z-8.25 F1016
G1 X539.643 Y20.313 Z-8.256 F1016
G1 X539.605 Y20.264 Z-8.261 F1016
G1 X539.575 Y20.211 Z-8.266 F1016
G1 X539.551 Y20.154 Z-8.272 F1016
G1 X539.535 Y20.095 Z-8.277 F1016
G1 X539.526 Y20.034 Z-8.282 F1016
G1 Y19.972 Z-8.287 F1016
G1 X539.533 Y19.911 Z-8.293 F1016
G1 X539.549 Y19.851 Z-8.298 F1016
G1 X539.572 Y19.794 Z-8.303 F1016
G1 X539.602 Y19.741 Z-8.308 F1016
G1 X539.639 Y19.691 Z-8.314 F1016
G1 X539.682 Y19.647 Z-8.319 F1016
G1 X539.73 Y19.609 Z-8.324 F1016
G1 X539.783 Y19.577 Z-8.329 F1016
G1 X539.84 Y19.553 Z-8.335 F1016
G1 X539.899 Y19.536 Z-8.34 F1016
G1 X539.96 Y19.527 Z-8.345 F1016
G1 X540.021 Y19.525 Z-8.351 F1016
G1 X540.083 Y19.532 Z-8.356 F1016
G1 X540.142 Y19.547 Z-8.361 F1016
G1 X540.2 Y19.569 Z-8.366 F1016
G1 X540.254 Y19.599 Z-8.372 F1016
G1 X540.304 Y19.635 Z-8.377 F1016
G1 X540.348 Y19.677 Z-8.382 F1016
G1 X540.387 Y19.725 Z-8.387 F1016
G1 X540.42 Y19.777 Z-8.393 F1016
G1 X540.445 Y19.834 Z-8.398 F1016
G1 X540.463 Y19.893 Z-8.403 F1016
G1 X540.473 Y19.953 Z-8.408 F1016
G1 X540.475 Y20.015 Z-8.414 F1016
G1 X540.469 Y20.076 Z-8.419 F1016
G1 X540.455 Y20.136 Z-8.424 F1016
G1 X540.434 Y20.194 Z-8.429 F1016
G1 X540.405 Y20.248 Z-8.435 F1016
G1 X540.369 Y20.299 Z-8.44 F1016
G1 X540.327 Y20.344 Z-8.445 F1016
G1 X540.28 Y20.384 Z-8.451 F1016
G1 X540.228 Y20.417 Z-8.456 F1016
G1 X540.172 Y20.443 Z-8.461 F1016
G1 X540.114 Y20.461 Z-8.466 F1016
G1 X540.053 Y20.472 Z-8.472 F1016
G1 X539.991 Y20.475 Z-8.477 F1016
G1 X539.93 Y20.47 Z-8.482 F1016
G1 X539.87 Y20.457 Z-8.487 F1016
G1 X539.812 Y20.436 Z-8.493 F1016
G1 X539.757 Y20.408 Z-8.498 F1016
G1 X539.706 Y20.373 Z-8.503 F1016
G1 X539.66 Y20.332 Z-8.508 F1016
G1 X539.62 Y20.285 Z-8.514 F1016
G1 X539.587 Y20.234 Z-8.519 F1016
G1 X539.56 Y20.178 Z-8.524 F1016
G1 X539.54 Y20.12 Z-8.53 F1016
G1 X539.529 Y20.059 Z-8.535 F1016
G1 X539.525 Y19.998 Z-8.54 F1016
G1 X539.529 Y19.936 Z-8.545 F1016
G1 X539.541 Y19.876 Z-8.551 F1016
G1 X539.561 Y19.818 Z-8.556 F1016
G1 X539.589 Y19.763 Z-8.561 F1016
G1 X539.623 Y19.711 Z-8.566 F1016
G1 X539.663 Y19.665 Z-8.572 F1016
G1 X539.71 Y19.624 Z-8.577 F1016
G1 X539.761 Y19.59 Z-8.582 F1016
G1 X539.816 Y19.562 Z-8.587 F1016
G1 X539.874 Y19.542 Z-8.593 F1016
G1 X539.934 Y19.53 Z-8.598 F1016
G1 X539.996 Y19.525 Z-8.603 F1016
G1 X540.057 Y19.528 Z-8.608 F1016
G1 X540.118 Y19.54 Z-8.614 F1016
G1 X540.176 Y19.559 Z-8.619 F1016
G1 X540.232 Y19.585 Z-8.624 F1016
G1 X540.284 Y19.619 Z-8.63 F1016
G1 X540.33 Y19.659 Z-8.635 F1016
G1 X540.372 Y19.704 Z-8.64 F1016
G1 X540.407 Y19.755 Z-8.645 F1016
G1 X540.435 Y19.81 Z-8.651 F1016
G1 X540.456 Y19.868 Z-8.656 F1016
G1 X540.469 Y19.928 Z-8.661 F1016
G1 X540.475 Y19.989 Z-8.666 F1016
G1 X540.472 Y20.051 Z-8.672 F1016
G1 X540.462 Y20.111 Z-8.677 F1016
G1 X540.443 Y20.17 Z-8.682 F1016
G1 X540.418 Y20.226 Z-8.687 F1016
G1 X540.385 Y20.278 Z-8.693 F1016
G1 X540.346 Y20.326 Z-8.698 F1016
G1 X540.301 Y20.368 Z-8.703 F1016
G1 X540.25 Y20.404 Z-8.709 F1016
G1 X540.196 Y20.433 Z-8.714 F1016
G1 X540.138 Y20.454 Z-8.719 F1016
G1 X540.078 Y20.468 Z-8.724 F1016
G1 X540.017 Y20.475 Z-8.73 F1016
G1 X539.956 Y20.473 Z-8.735 F1016
G1 X539.895 Y20.463 Z-8.74 F1016
G1 X539.836 Y20.446 Z-8.745 F1016
G1 X539.779 Y20.421 Z-8.751 F1016
G1 X539.727 Y20.389 Z-8.756 F1016
G1 X539.679 Y20.35 Z-8.761 F1016
G1 X539.636 Y20.305 Z-8.766 F1016
G1 X539.6 Y20.256 Z-8.772 F1016
G1 X539.57 Y20.202 Z-8.777 F1016
G1 X539.548 Y20.145 Z-8.782 F1016
G1 X539.533 Y20.085 Z-8.788 F1016
G1 X539.526 Y20.024 Z-8.793 F1016
G1 X539.527 Y19.962 Z-8.798 F1016
G1 X539.535 Y19.901 Z-8.803 F1016
G1 X539.552 Y19.842 Z-8.809 F1016
G1 X539.576 Y19.785 Z-8.814 F1016
G1 X539.608 Y19.732 Z-8.819 F1016
G1 X539.646 Y19.684 Z-8.824 F1016
G1 X539.69 Y19.64 Z-8.83 F1016
G1 X539.739 Y19.603 Z-8.835 F1016
G1 X539.792 Y19.573 Z-8.84 F1016
G1 X539.849 Y19.55 Z-8.845 F1016
G1 X539.909 Y19.534 Z-8.851 F1016
G1 X539.97 Y19.526 Z-8.856 F1016
G1 X540.032 Z-8.861 F1016
G1 X540.093 Y19.534 Z-8.866 F1016
G1 X540.152 Y19.55 Z-8.872 F1016
G1 X540.209 Y19.574 Z-8.877 F1016
G1 X540.263 Y19.604 Z-8.882 F1016
G1 X540.312 Y19.641 Z-8.888 F1016
G1 X540.355 Y19.685 Z-8.893 F1016
G1 X540.393 Y19.733 Z-8.898 F1016
G1 X540.424 Y19.787 Z-8.903 F1016
G1 X540.448 Y19.843 Z-8.909 F1016
G1 X540.465 Y19.903 Z-8.914 F1016
G1 X540.474 Y19.964 Z-8.919 F1016
G1 Y20.025 Z-8.924 F1016
G1 X540.467 Y20.086 Z-8.93 F1016
G1 X540.452 Y20.146 Z-8.935 F1016
G1 X540.429 Y20.203 Z-8.94 F1016
G1 X540.399 Y20.257 Z-8.945 F1016
G1 X540.363 Y20.307 Z-8.951 F1016
G1 X540.32 Y20.351 Z-8.956 F1016
G1 X540.272 Y20.389 Z-8.961 F1016
G1 X540.219 Y20.421 Z-8.967 F1016
G1 X540.163 Y20.446 Z-8.972 F1016
G1 X540.104 Y20.464 Z-8.977 F1016
G1 X540.043 Y20.473 Z-8.982 F1016
G1 X539.981 Y20.475 Z-8.988 F1016
G1 X539.92 Y20.468 Z-8.993 F1016
G1 X539.86 Y20.454 Z-8.998 F1016
G1 X539.803 Y20.432 Z-9.003 F1016
G1 X539.748 Y20.403 Z-9.009 F1016
G1 X539.698 Y20.367 Z-9.014 F1016
G1 X539.653 Y20.325 Z-9.019 F1016
G1 X539.614 Y20.277 Z-9.024 F1016
G1 X539.582 Y20.225 Z-9.03 F1016
G1 X539.556 Y20.169 Z-9.035 F1016
G1 X539.538 Y20.11 Z-9.04 F1016
G1 X539.528 Y20.049 Z-9.046 F1016
G1 X539.525 Y19.988 Z-9.051 F1016
G1 X539.531 Y19.926 Z-9.056 F1016
G1 X539.544 Y19.866 Z-9.061 F1016
G1 X539.565 Y19.808 Z-9.067 F1016
G1 X539.594 Y19.754 Z-9.072 F1016
G1 X539.629 Y19.703 Z-9.077 F1016
G1 X539.671 Y19.658 Z-9.082 F1016
G1 X539.718 Y19.618 Z-9.088 F1016
G1 X539.77 Y19.585 Z-9.093 F1016
G1 X539.825 Y19.558 Z-9.098 F1016
G1 X539.884 Y19.539 Z-9.103 F1016
G1 X539.944 Y19.528 Z-9.109 F1016
G1 X540.006 Y19.525 Z-9.114 F1016
G1 X540.067 Y19.53 Z-9.119 F1016
G1 X540.128 Y19.542 Z-9.124 F1016
G1 X540.186 Y19.563 Z-9.13 F1016
G1 X540.241 Y19.591 Z-9.135 F1016
G1 X540.292 Y19.625 Z-9.14 F1016
G1 X540.338 Y19.666 Z-9.146 F1016
G1 X540.378 Y19.713 Z-9.151 F1016
G1 X540.412 Y19.764 Z-9.156 F1016
G1 X540.439 Y19.819 Z-9.161 F1016
G1 X540.459 Y19.878 Z-9.167 F1016
G1 X540.471 Y19.938 Z-9.172 F1016
G1 X540.475 Y19.999 Z-9.177 F1016
G1 X540.471 Y20.061 Z-9.182 F1016
G1 X540.459 Y20.121 Z-9.188 F1016
G1 X540.44 Y20.18 Z-9.193 F1016
G1 X540.413 Y20.235 Z-9.198 F1016
G1 X540.379 Y20.287 Z-9.203 F1016
G1 X540.338 Y20.333 Z-9.209 F1016
G1 X540.293 Y20.374 Z-9.214 F1016
G1 X540.242 Y20.409 Z-9.219 F1016
G1 X540.187 Y20.437 Z-9.225 F1016
G1 X540.129 Y20.457 Z-9.23 F1016
G1 X540.068 Y20.47 Z-9.235 F1016
G1 X540.007 Y20.475 Z-9.24 F1016
G1 X539.945 Y20.472 Z-9.246 F1016
G1 X539.885 Y20.461 Z-9.251 F1016
G1 X539.826 Y20.442 Z-9.256 F1016
G1 X539.77 Y20.416 Z-9.261 F1016
G1 X539.719 Y20.383 Z-9.267 F1016
G1 X539.671 Y20.343 Z-9.272 F1016
G1 X539.63 Y20.298 Z-9.277 F1016
G1 X539.594 Y20.247 Z-9.282 F1016
G1 X539.566 Y20.193 Z-9.288 F1016
G1 X539.545 Y20.135 Z-9.293 F1016
G1 X539.531 Y20.075 Z-9.298 F1016
G1 X539.525 Y20.013 Z-9.303 F1016
G1 X539.527 Y19.952 Z-9.309 F1016
G1 X539.538 Y19.891 Z-9.314 F1016
G1 X539.556 Y19.832 Z-9.319 F1016
G1 X539.581 Y19.776 Z-9.325 F1016
G1 X539.614 Y19.724 Z-9.33 F1016
G1 X539.653 Y19.676 Z-9.335 F1016
G1 X539.697 Y19.634 Z-9.34 F1016
G1 X539.747 Y19.598 Z-9.346 F1016
G1 X539.802 Y19.568 Z-9.351 F1016
G1 X539.859 Y19.546 Z-9.356 F1016
G1 X539.919 Y19.532 Z-9.361 F1016
G1 X539.98 Y19.525 Z-9.367 F1016
G1 X540.042 Y19.527 Z-9.372 F1016
G1 X540.103 Y19.536 Z-9.377 F1016
G1 X540.162 Y19.553 Z-9.382 F1016
G1 X540.218 Y19.578 Z-9.388 F1016
G1 X540.271 Y19.61 Z-9.393 F1016
G1 X540.319 Y19.648 Z-9.398 F1016
G1 X540.362 Y19.693 Z-9.404 F1016
G1 X540.399 Y19.742 Z-9.409 F1016
G1 X540.429 Y19.796 Z-9.414 F1016
G1 X540.452 Y19.853 Z-9.419 F1016
G1 X540.467 Y19.913 Z-9.425 F1016
G1 X540.474 Y19.974 Z-9.43 F1016
G1 Y20.035 Z-9.435 F1016
G1 X540.465 Y20.096 Z-9.44 F1016
G1 X540.449 Y20.156 Z-9.446 F1016
G1 X540.425 Y20.213 Z-9.451 F1016
G1 X540.394 Y20.266 Z-9.456 F1016
G1 X540.356 Y20.314 Z-9.461 F1016
G1 X540.312 Y20.358 Z-9.467 F1016
G1 X540.263 Y20.395 Z-9.472 F1016
G1 X540.21 Y20.426 Z-9.477 F1016
G1 X540.153 Y20.45 Z-9.483 F1016
G1 X540.094 Y20.466 Z-9.488 F1016
G1 X540.033 Y20.474 Z-9.493 F1016
G1 X539.971 Z-9.498 F1016
G1 X539.91 Y20.466 Z-9.504 F1016
G1 X539.85 Y20.451 Z-9.509 F1016
G1 X539.793 Y20.428 Z-9.514 F1016
G1 X539.74 Y20.397 Z-9.519 F1016
G1 X539.69 Y20.36 Z-9.525 F1016
G1 X539.646 Y20.317 Z-9.53 F1016
G1 X539.608 Y20.269 Z-9.535 F1016
G1 X539.577 Y20.216 Z-9.54 F1016
G1 X539.552 Y20.159 Z-9.546 F1016
G1 X539.536 Y20.1 Z-9.551 F1016
G1 X539.527 Y20.039 Z-9.556 F1016
G1 X539.526 Y19.977 Z-9.561 F1016
G1 X539.532 Y19.916 Z-9.567 F1016
G1 X539.547 Y19.856 Z-9.572 F1016
G1 X539.57 Y19.799 Z-9.577 F1016
G1 X539.599 Y19.745 Z-9.583 F1016
G1 X539.636 Y19.695 Z-9.588 F1016
G1 X539.678 Y19.651 Z-9.593 F1016
G1 X539.726 Y19.612 Z-9.598 F1016
G1 X539.779 Y19.58 Z-9.604 F1016
G1 X539.835 Y19.555 Z-9.609 F1016
G1 X539.894 Y19.537 Z-9.614 F1016
G1 X539.955 Y19.527 Z-9.619 F1016
G1 X540.016 Y19.525 Z-9.625 F1016
G1 X540.077 Y19.531 Z-9.63 F1016
G1 X540.137 Y19.545 Z-9.635 F1016
G1 X540.195 Y19.567 Z-9.64 F1016
G1 X540.25 Y19.596 Z-9.646 F1016
G1 X540.3 Y19.632 Z-9.651 F1016
G1 X540.345 Y19.673 Z-9.656 F1016
G1 X540.384 Y19.721 Z-9.662 F1016
G1 X540.417 Y19.773 Z-9.667 F1016
G1 X540.443 Y19.829 Z-9.672 F1016
G1 X540.461 Y19.888 Z-9.677 F1016
G1 X540.472 Y19.948 Z-9.683 F1016
G1 X540.475 Y20.01 Z-9.688 F1016
G1 X540.47 Y20.071 Z-9.693 F1016
G1 X540.456 Y20.131 Z-9.698 F1016
G1 X540.436 Y20.189 Z-9.704 F1016
G1 X540.408 Y20.244 Z-9.709 F1016
G1 X540.372 Y20.295 Z-9.714 F1016
G1 X540.331 Y20.34 Z-9.719 F1016
G1 X540.284 Y20.38 Z-9.725 F1016
G1 X540.233 Y20.414 Z-9.73 F1016
G1 X540.177 Y20.441 Z-9.735 F1016
G1 X540.119 Y20.46 Z-9.741 F1016
G1 X540.058 Y20.471 Z-9.746 F1016
G1 X539.997 Y20.475 Z-9.751 F1016
G1 X539.935 Y20.471 Z-9.756 F1016
G1 X539.875 Y20.458 Z-9.762 F1016
G1 X539.817 Y20.438 Z-9.767 F1016
G1 X539.762 Y20.411 Z-9.772 F1016
G1 X539.71 Y20.376 Z-9.777 F1016
G1 X539.664 Y20.336 Z-9.783 F1016
G1 X539.623 Y20.29 Z-9.788 F1016
G1 X539.589 Y20.238 Z-9.793 F1016
G1 X539.562 Y20.183 Z-9.798 F1016
G1 X539.542 Y20.125 Z-9.804 F1016
G1 X539.529 Y20.065 Z-9.809 F1016
G1 X539.525 Y20.003 Z-9.814 F1016
G1 X539.529 Y19.942 Z-9.819 F1016
G1 X539.54 Y19.881 Z-9.825 F1016
G1 X539.559 Y19.823 Z-9.83 F1016
G1 X539.586 Y19.767 Z-9.835 F1016
G1 X539.62 Y19.715 Z-9.841 F1016
G1 X539.66 Y19.669 Z-9.846 F1016
G1 X539.705 Y19.627 Z-9.851 F1016
G1 X539.756 Y19.592 Z-9.856 F1016
G1 X539.811 Y19.564 Z-9.862 F1016
G1 X539.869 Y19.543 Z-9.867 F1016
G1 X539.929 Y19.53 Z-9.872 F1016
G1 X539.99 Y19.525 Z-9.877 F1016
G1 X540.052 Y19.528 Z-9.883 F1016
G1 X540.113 Y19.539 Z-9.888 F1016
G1 X540.171 Y19.557 Z-9.893 F1016
G1 X540.227 Y19.583 Z-9.898 F1016
G1 X540.279 Y19.616 Z-9.904 F1016
G1 X540.327 Y19.655 Z-9.909 F1016
G1 X540.369 Y19.7 Z-9.914 F1016
G1 X540.404 Y19.751 Z-9.92 F1016
G1 X540.433 Y19.805 Z-9.925 F1016
G1 X540.455 Y19.863 Z-9.93 F1016
G1 X540.469 Y19.923 Z-9.935 F1016
G1 X540.475 Y19.984 Z-9.941 F1016
G1 X540.473 Y20.046 Z-9.946 F1016
G1 X540.463 Y20.106 Z-9.951 F1016
G1 X540.445 Y20.165 Z-9.956 F1016
G1 X540.42 Y20.222 Z-9.962 F1016
G1 X540.388 Y20.274 Z-9.967 F1016
G1 X540.349 Y20.322 Z-9.972 F1016
G1 X540.305 Y20.365 Z-9.977 F1016
G1 X540.255 Y20.401 Z-9.983 F1016
G1 X540.201 Y20.43 Z-9.988 F1016
G1 X540.143 Y20.453 Z-9.993 F1016
G1 X540.084 Y20.468 Z-9.998 F1016
G1 X540.022 Y20.474 Z-10.004 F1016
G1 X539.961 Y20.473 Z-10.009 F1016
G1 X539.9 Y20.464 Z-10.014 F1016
G1 X539.841 Y20.447 Z-10.02 F1016
G1 X539.784 Y20.423 Z-10.025 F1016
G1 X539.731 Y20.392 Z-10.03 F1016
G1 X539.683 Y20.353 Z-10.035 F1016
G1 X539.64 Y20.309 Z-10.041 F1016
G1 X539.603 Y20.26 Z-10.046 F1016
G1 X539.572 Y20.207 Z-10.051 F1016
G1 X539.549 Y20.15 Z-10.056 F1016
G1 X539.534 Y20.09 Z-10.062 F1016
G1 X539.526 Y20.029 Z-10.067 F1016
G1 Y19.967 Z-10.072 F1016
G1 X539.534 Y19.906 Z-10.077 F1016
G1 X539.55 Y19.847 Z-10.083 F1016
G1 X539.574 Y19.79 Z-10.088 F1016
G1 X539.605 Y19.736 Z-10.093 F1016
G1 X539.642 Y19.688 Z-10.099 F1016
G1 X539.686 Y19.644 Z-10.104 F1016
G1 X539.734 Y19.606 Z-10.109 F1016
G1 X539.788 Y19.575 Z-10.114 F1016
G1 X539.844 Y19.551 Z-10.12 F1016
G1 X539.904 Y19.535 Z-10.125 F1016
G1 X539.965 Y19.526 Z-10.13 F1016
G1 X540.026 Z-10.135 F1016
G1 X540.088 Y19.533 Z-10.141 F1016
G1 X540.147 Y19.548 Z-10.146 F1016
G1 X540.204 Y19.571 Z-10.151 F1016
G1 X540.258 Y19.601 Z-10.156 F1016
G1 X540.308 Y19.638 Z-10.162 F1016
G1 X540.352 Y19.681 Z-10.167 F1016
G1 X540.39 Y19.729 Z-10.172 F1016
G1 X540.422 Y19.782 Z-10.178 F1016
G1 X540.447 Y19.838 Z-10.183 F1016
G1 X540.464 Y19.898 Z-10.188 F1016
G1 X540.473 Y19.958 Z-10.193 F1016
G1 X540.475 Y20.02 Z-10.199 F1016
G1 X540.468 Y20.081 Z-10.204 F1016
G1 X540.454 Y20.141 Z-10.209 F1016
G1 X540.431 Y20.199 Z-10.214 F1016
G1 X540.402 Y20.253 Z-10.22 F1016
G1 X540.366 Y20.303 Z-10.225 F1016
G1 X540.324 Y20.347 Z-10.23 F1016
G1 X540.276 Y20.386 Z-10.235 F1016
G1 X540.224 Y20.419 Z-10.241 F1016
G1 X540.168 Y20.444 Z-10.246 F1016
G1 X540.109 Y20.462 Z-10.251 F1016
G1 X540.048 Y20.473 Z-10.256 F1016
G1 X539.986 Y20.475 Z-10.262 F1016
G1 X539.925 Y20.469 Z-10.267 F1016
G1 X539.865 Y20.455 Z-10.272 F1016
G1 X539.807 Y20.434 Z-10.278 F1016
G1 X539.753 Y20.406 Z-10.283 F1016
G1 X539.702 Y20.37 Z-10.288 F1016
G1 X539.657 Y20.328 Z-10.293 F1016
G1 X539.617 Y20.281 Z-10.299 F1016
G1 X539.584 Y20.229 Z-10.304 F1016
G1 X539.558 Y20.174 Z-10.309 F1016
G1 X539.539 Y20.115 Z-10.314 F1016
G1 X539.528 Y20.054 Z-10.32 F1016
G1 X539.525 Y19.993 Z-10.325 F1016
G1 X539.53 Y19.931 Z-10.33 F1016
G1 X539.543 Y19.871 Z-10.335 F1016
G1 X539.563 Y19.813 Z-10.341 F1016
G1 X539.591 Y19.758 Z-10.346 F1016
G1 X539.626 Y19.707 Z-10.351 F1016
G1 X539.667 Y19.661 Z-10.357 F1016
G1 X539.714 Y19.621 Z-10.362 F1016
G1 X539.765 Y19.587 Z-10.367 F1016
G1 X539.82 Y19.56 Z-10.372 F1016
G1 X539.879 Y19.541 Z-10.378 F1016
G1 X539.939 Y19.529 Z-10.383 F1016
G1 X540.001 Y19.525 Z-10.388 F1016
G1 X540.062 Y19.529 Z-10.393 F1016
G1 X540.123 Y19.541 Z-10.399 F1016
G1 X540.181 Y19.561 Z-10.404 F1016
G1 X540.236 Y19.588 Z-10.409 F1016
G1 X540.288 Y19.622 Z-10.414 F1016
G1 X540.334 Y19.662 Z-10.42 F1016
G1 X540.375 Y19.708 Z-10.425 F1016
G1 X540.41 Y19.759 Z-10.43 F1016
G1 X540.437 Y19.814 Z-10.436 F1016
G1 X540.458 Y19.873 Z-10.441 F1016
G1 X540.47 Y19.933 Z-10.446 F1016
G1 X540.475 Y19.994 Z-10.451 F1016
G1 X540.472 Y20.056 Z-10.457 F1016
G1 X540.461 Y20.116 Z-10.462 F1016
G1 X540.442 Y20.175 Z-10.467 F1016
G1 X540.415 Y20.231 Z-10.472 F1016
G1 X540.382 Y20.282 Z-10.478 F1016
G1 X540.342 Y20.329 Z-10.483 F1016
G1 X540.297 Y20.371 Z-10.488 F1016
G1 X540.246 Y20.406 Z-10.493 F1016
G1 X540.191 Y20.435 Z-10.499 F1016
G1 X540.134 Y20.456 Z-10.504 F1016
G1 X540.073 Y20.469 Z-10.509 F1016
G1 X540.012 Y20.475 Z-10.514 F1016
G1 X539.951 Y20.472 Z-10.52 F1016
G1 X539.89 Y20.462 Z-10.525 F1016
G1 X539.831 Y20.444 Z-10.53 F1016
G1 X539.775 Y20.418 Z-10.536 F1016
G1 X539.723 Y20.386 Z-10.541 F1016
G1 X539.675 Y20.347 Z-10.546 F1016
G1 X539.633 Y20.302 Z-10.551 F1016
G1 X539.597 Y20.252 Z-10.557 F1016
G1 X539.568 Y20.197 Z-10.562 F1016
G1 X539.546 Y20.14 Z-10.567 F1016
G1 X539.532 Y20.08 Z-10.572 F1016
G1 X539.525 Y20.019 Z-10.578 F1016
G1 X539.527 Y19.957 Z-10.583 F1016
G1 X539.537 Y19.896 Z-10.588 F1016
G1 X539.554 Y19.837 Z-10.593 F1016
G1 X539.579 Y19.781 Z-10.599 F1016
G1 X539.611 Y19.728 Z-10.604 F1016
G1 X539.649 Y19.68 Z-10.609 F1016
G1 X539.693 Y19.637 Z-10.615 F1016
G1 X539.743 Y19.601 Z-10.62 F1016
G1 X539.797 Y19.571 Z-10.625 F1016
G1 X539.854 Y19.548 Z-10.63 F1016
G1 X539.914 Y19.533 Z-10.636 F1016
G1 X539.975 Y19.526 Z-10.641 F1016
G1 X540.037 Z-10.646 F1016
G1 X540.098 Y19.535 Z-10.651 F1016
G1 X540.157 Y19.552 Z-10.657 F1016
G1 X540.214 Y19.576 Z-10.662 F1016
G1 X540.267 Y19.607 Z-10.667 F1016
G1 X540.315 Y19.645 Z-10.672 F1016
G1 X540.359 Y19.689 Z-10.678 F1016
G1 X540.396 Y19.738 Z-10.683 F1016
G1 X540.427 Y19.791 Z-10.688 F1016
G1 X540.45 Y19.848 Z-10.693 F1016
G1 X540.466 Y19.908 Z-10.699 F1016
G1 X540.474 Y19.969 Z-10.704 F1016
G1 Y20.03 Z-10.709 F1016
G1 X540.466 Y20.091 Z-10.715 F1016
G1 X540.45 Y20.151 Z-10.72 F1016
G1 X540.427 Y20.208 Z-10.725 F1016
G1 X540.397 Y20.261 Z-10.73 F1016
G1 X540.359 Y20.31 Z-10.736 F1016
G1 X540.316 Y20.354 Z-10.741 F1016
G1 X540.268 Y20.392 Z-10.746 F1016
G1 X540.215 Y20.424 Z-10.751 F1016
G1 X540.158 Y20.448 Z-10.757 F1016
G1 X540.099 Y20.465 Z-10.762 F1016
G1 X540.038 Y20.473 Z-10.767 F1016
G1 X539.976 Y20.474 Z-10.772 F1016
G1 X539.915 Y20.467 Z-10.778 F1016
G1 X539.855 Y20.452 Z-10.783 F1016
G1 X539.798 Y20.43 Z-10.788 F1016
G1 X539.744 Y20.4 Z-10.794 F1016
G1 X539.694 Y20.364 Z-10.799 F1016
G1 X539.65 Y20.321 Z-10.804 F1016
G1 X539.611 Y20.273 Z-10.809 F1016
G1 X539.579 Y20.22 Z-10.815 F1016
G1 X539.554 Y20.164 Z-10.82 F1016
G1 X539.537 Y20.105 Z-10.825 F1016
G1 X539.527 Y20.044 Z-10.83 F1016
G1 X539.525 Y19.983 Z-10.836 F1016
G1 X539.532 Y19.921 Z-10.841 F1016
G1 X539.546 Y19.861 Z-10.846 F1016
G1 X539.567 Y19.804 Z-10.851 F1016
G1 X539.596 Y19.749 Z-10.857 F1016
G1 X539.632 Y19.699 Z-10.862 F1016
G1 X539.674 Y19.654 Z-10.867 F1016
G1 X539.722 Y19.615 Z-10.873 F1016
G1 X539.774 Y19.582 Z-10.878 F1016
G1 X539.83 Y19.557 Z-10.883 F1016
G1 X539.889 Y19.538 Z-10.888 F1016
G1 X539.949 Y19.528 Z-10.894 F1016
G1 X540.011 Y19.525 Z-10.899 F1016
G1 X540.072 Y19.531 Z-10.904 F1016
G1 X540.132 Y19.544 Z-10.909 F1016
G1 X540.19 Y19.565 Z-10.915 F1016
G1 X540.245 Y19.593 Z-10.92 F1016
G1 X540.296 Y19.628 Z-10.925 F1016
G1 X540.341 Y19.67 Z-10.93 F1016
G1 X540.381 Y19.717 Z-10.936 F1016
G1 X540.415 Y19.768 Z-10.941 F1016
G1 X540.441 Y19.824 Z-10.946 F1016
G1 X540.46 Y19.882 Z-10.951 F1016
G1 X540.472 Y19.943 Z-10.957 F1016
G1 X540.475 Y20.005 Z-10.962 F1016
G1 X540.47 Y20.066 Z-10.967 F1016
G1 X540.458 Y20.126 Z-10.973 F1016
G1 X540.438 Y20.184 Z-10.978 F1016
G1 X540.41 Y20.24 Z-10.983 F1016
G1 X540.376 Y20.291 Z-10.988 F1016
G1 X540.335 Y20.337 Z-10.994 F1016
G1 X540.289 Y20.377 Z-10.999 F1016
G1 X540.237 Y20.411 Z-11.004 F1016
G1 X540.182 Y20.439 Z-11.009 F1016
G1 X540.124 Y20.459 Z-11.015 F1016
G1 X540.063 Y20.471 Z-11.02 F1016
G1 X540.002 Y20.475 Z-11.025 F1016
G1 X539.94 Y20.471 Z-11.03 F1016
G1 X539.88 Y20.46 Z-11.036 F1016
G1 X539.821 Y20.44 Z-11.041 F1016
G1 X539.766 Y20.413 Z-11.046 F1016
G1 X539.715 Y20.38 Z-11.052 F1016
G1 X539.668 Y20.339 Z-11.057 F1016
G1 X539.627 Y20.294 Z-11.062 F1016
G1 X539.592 Y20.243 Z-11.067 F1016
G1 X539.564 Y20.188 Z-11.073 F1016
G1 X539.543 Y20.13 Z-11.078 F1016
G1 X539.53 Y20.07 Z-11.083 F1016
G1 X539.525 Y20.008 Z-11.088 F1016
G1 X539.528 Y19.947 Z-11.094 F1016
G1 X539.539 Y19.886 Z-11.099 F1016
G1 X539.557 Y19.827 Z-11.104 F1016
G1 X539.584 Y19.772 Z-11.109 F1016
G1 X539.617 Y19.72 Z-11.115 F1016
G1 X539.656 Y19.672 Z-11.12 F1016
G1 X539.701 Y19.631 Z-11.125 F1016
G1 X539.752 Y19.595 Z-11.131 F1016
G1 X539.806 Y19.566 Z-11.136 F1016
G1 X539.864 Y19.545 Z-11.141 F1016
G1 X539.924 Y19.531 Z-11.146 F1016
G1 X539.985 Y19.525 Z-11.152 F1016
G1 X540.047 Y19.527 Z-11.157 F1016
G1 X540.108 Y19.537 Z-11.162 F1016
G1 X540.167 Y19.555 Z-11.167 F1016
G1 X540.223 Y19.58 Z-11.173 F1016
G1 X540.275 Y19.613 Z-11.178 F1016
G1 X540.323 Y19.652 Z-11.183 F1016
G1 X540.365 Y19.696 Z-11.188 F1016
G1 X540.401 Y19.746 Z-11.194 F1016
G1 X540.431 Y19.8 Z-11.199 F1016
G1 X540.453 Y19.858 Z-11.204 F1016
G1 X540.468 Y19.918 Z-11.209 F1016
G1 X540.475 Y19.979 Z-11.215 F1016
G1 X540.473 Y20.04 Z-11.22 F1016
G1 X540.464 Y20.101 Z-11.225 F1016
G1 X540.447 Y20.161 Z-11.231 F1016
G1 X540.423 Y20.217 Z-11.236 F1016
G1 X540.391 Y20.27 Z-11.241 F1016
G1 X540.353 Y20.318 Z-11.246 F1016
G1 X540.309 Y20.361 Z-11.252 F1016
G1 X540.259 Y20.398 Z-11.257 F1016
G1 X540.206 Y20.428 Z-11.262 F1016
G1 X540.148 Y20.451 Z-11.267 F1016
G1 X540.089 Y20.467 Z-11.273 F1016
G1 X540.028 Y20.474 Z-11.278 F1016
G1 X539.966 Z-11.283 F1016
G1 X539.905 Y20.465 Z-11.288 F1016
G1 X539.846 Y20.449 Z-11.294 F1016
G1 X539.789 Y20.425 Z-11.299 F1016
G1 X539.735 Y20.394 Z-11.304 F1016
G1 X539.687 Y20.357 Z-11.31 F1016
G1 X539.643 Y20.313 Z-11.315 F1016
G1 X539.606 Y20.265 Z-11.32 F1016
G1 X539.575 Y20.211 Z-11.325 F1016
G1 X539.551 Y20.154 Z-11.331 F1016
G1 X539.535 Y20.095 Z-11.336 F1016
G1 X539.526 Y20.034 Z-11.341 F1016
G1 Y19.972 Z-11.346 F1016
G1 X539.533 Y19.911 Z-11.352 F1016
G1 X539.549 Y19.852 Z-11.357 F1016
G1 X539.572 Y19.794 Z-11.362 F1016
G1 X539.602 Y19.741 Z-11.367 F1016
G1 X539.639 Y19.691 Z-11.373 F1016
G1 X539.682 Y19.647 Z-11.378 F1016
G1 X539.73 Y19.609 Z-11.383 F1016
G1 X539.783 Y19.577 Z-11.388 F1016
G1 X539.839 Y19.553 Z-11.394 F1016
G1 X539.899 Y19.536 Z-11.399 F1016
G1 X539.96 Y19.527 Z-11.404 F1016
G1 X540.021 Y19.525 Z-11.41 F1016
G1 X540.082 Y19.532 Z-11.415 F1016
G1 X540.142 Y19.547 Z-11.42 F1016
G1 X540.2 Y19.569 Z-11.425 F1016
G1 X540.254 Y19.599 Z-11.431 F1016
G1 X540.304 Y19.635 Z-11.436 F1016
G1 X540.348 Y19.677 Z-11.441 F1016
G1 X540.387 Y19.725 Z-11.446 F1016
G1 X540.42 Y19.777 Z-11.452 F1016
G1 X540.445 Y19.833 Z-11.457 F1016
G1 X540.463 Y19.892 Z-11.462 F1016
G1 X540.473 Y19.953 Z-11.467 F1016
G1 X540.475 Y20.015 Z-11.473 F1016
G1 X540.469 Y20.076 Z-11.478 F1016
G1 X540.455 Y20.136 Z-11.483 F1016
G1 X540.434 Y20.194 Z-11.489 F1016
G1 X540.405 Y20.248 Z-11.494 F1016
G1 X540.369 Y20.299 Z-11.499 F1016
G1 X540.328 Y20.344 Z-11.504 F1016
G1 X540.28 Y20.383 Z-11.51 F1016
G1 X540.228 Y20.416 Z-11.515 F1016
G1 X540.173 Y20.443 Z-11.52 F1016
G1 X540.114 Y20.461 Z-11.525 F1016
G1 X540.053 Y20.472 Z-11.531 F1016
G1 X539.992 Y20.475 Z-11.536 F1016
G1 X539.93 Y20.47 Z-11.541 F1016
G1 X539.87 Y20.457 Z-11.546 F1016
G1 X539.812 Y20.436 Z-11.552 F1016
G1 X539.757 Y20.408 Z-11.557 F1016
G1 X539.706 Y20.373 Z-11.562 F1016
G1 X539.661 Y20.332 Z-11.568 F1016
G1 X539.62 Y20.285 Z-11.573 F1016
G1 X539.587 Y20.234 Z-11.578 F1016
G1 X539.56 Y20.179 Z-11.583 F1016
G1 X539.54 Y20.12 Z-11.589 F1016
G1 X539.529 Y20.06 Z-11.594 F1016
G1 X539.525 Y19.998 Z-11.599 F1016
G1 X539.529 Y19.937 Z-11.604 F1016
G1 X539.541 Y19.876 Z-11.61 F1016
G1 X539.561 Y19.818 Z-11.615 F1016
G1 X539.589 Y19.763 Z-11.62 F1016
G1 X539.623 Y19.711 Z-11.625 F1016
G1 X539.663 Y19.665 Z-11.631 F1016
G1 X539.709 Y19.624 Z-11.636 F1016
G1 X539.76 Y19.59 Z-11.641 F1016
G1 X539.816 Y19.562 Z-11.646 F1016
G1 X539.874 Y19.542 Z-11.652 F1016
G1 X539.934 Y19.53 Z-11.657 F1016
G1 X539.995 Y19.525 Z-11.662 F1016
G1 X540.057 Y19.528 Z-11.668 F1016
G1 X540.118 Y19.54 Z-11.673 F1016
G1 X540.176 Y19.559 Z-11.678 F1016
G1 X540.232 Y19.585 Z-11.683 F1016
G1 X540.283 Y19.619 Z-11.689 F1016
G1 X540.33 Y19.659 Z-11.694 F1016
G1 X540.372 Y19.704 Z-11.699 F1016
G1 X540.407 Y19.755 Z-11.704 F1016
G1 X540.435 Y19.81 Z-11.71 F1016
G1 X540.456 Y19.868 Z-11.715 F1016
G1 X540.469 Y19.928 Z-11.72 F1016
G1 X540.475 Y19.989 Z-11.725 F1016
G1 X540.472 Y20.051 Z-11.731 F1016
G1 X540.462 Y20.111 Z-11.736 F1016
G1 X540.443 Y20.17 Z-11.741 F1016
G1 X540.418 Y20.226 Z-11.747 F1016
G1 X540.385 Y20.278 Z-11.752 F1016
G1 X540.346 Y20.326 Z-11.757 F1016
G1 X540.301 Y20.368 Z-11.762 F1016
G1 X540.251 Y20.404 Z-11.768 F1016
G1 X540.196 Y20.433 Z-11.773 F1016
G1 X540.139 Y20.454 Z-11.778 F1016
G1 X540.079 Y20.468 Z-11.783 F1016
G1 X540.017 Y20.475 Z-11.789 F1016
G1 X539.956 Y20.473 Z-11.794 F1016
G1 X539.895 Y20.463 Z-11.799 F1016
G1 X539.836 Y20.446 Z-11.804 F1016
G1 X539.78 Y20.421 Z-11.81 F1016
G1 X539.727 Y20.389 Z-11.815 F1016
G1 X539.679 Y20.35 Z-11.82 F1016
G1 X539.636 Y20.306 Z-11.825 F1016
G1 X539.6 Y20.256 Z-11.831 F1016
G1 X539.57 Y20.202 Z-11.836 F1016
G1 X539.548 Y20.145 Z-11.841 F1016
G1 X539.533 Y20.085 Z-11.847 F1016
G1 X539.526 Y20.024 Z-11.852 F1016
G1 X539.527 Y19.962 Z-11.857 F1016
G1 X539.535 Y19.901 Z-11.862 F1016
G1 X539.552 Y19.842 Z-11.868 F1016
G1 X539.576 Y19.785 Z-11.873 F1016
G1 X539.608 Y19.732 Z-11.878 F1016
G1 X539.646 Y19.684 Z-11.883 F1016
G1 X539.69 Y19.641 Z-11.889 F1016
G1 X539.739 Y19.603 Z-11.894 F1016
G1 X539.792 Y19.573 Z-11.899 F1016
G1 X539.849 Y19.55 Z-11.904 F1016
G1 X539.909 Y19.534 Z-11.91 F1016
G1 X539.97 Y19.526 Z-11.915 F1016
G1 X540.031 Z-11.92 F1016
G1 X540.092 Y19.534 Z-11.926 F1016
G1 X540.152 Y19.55 Z-11.931 F1016
G1 X540.209 Y19.573 Z-11.936 F1016
G1 X540.262 Y19.604 Z-11.941 F1016
G1 X540.311 Y19.641 Z-11.947 F1016
G1 X540.355 Y19.685 Z-11.952 F1016
G1 X540.393 Y19.733 Z-11.957 F1016
G1 X540.424 Y19.786 Z-11.962 F1016
G1 X540.448 Y19.843 Z-11.968 F1016
G1 X540.465 Y19.902 Z-11.973 F1016
G1 X540.474 Y19.963 Z-11.978 F1016
G1 Y20.025 Z-11.983 F1016
G1 X540.467 Y20.086 Z-11.989 F1016
G1 X540.452 Y20.146 Z-11.994 F1016
G1 X540.429 Y20.203 Z-11.999 F1016
G1 X540.399 Y20.257 Z-12.005 F1016
G1 X540.363 Y20.307 Z-12.01 F1016
G1 X540.32 Y20.351 Z-12.015 F1016
G1 X540.272 Y20.389 Z-12.02 F1016
G1 X540.219 Y20.421 Z-12.026 F1016
G1 X540.163 Y20.446 Z-12.031 F1016
G1 X540.104 Y20.463 Z-12.036 F1016
G1 X540.043 Y20.473 Z-12.041 F1016
G1 X539.981 Y20.475 Z-12.047 F1016
G1 X539.92 Y20.468 Z-12.052 F1016
G1 X539.86 Y20.454 Z-12.057 F1016
G1 X539.803 Y20.432 Z-12.062 F1016
G1 X539.748 Y20.403 Z-12.068 F1016
G1 X539.698 Y20.367 Z-12.073 F1016
G1 X539.653 Y20.325 Z-12.078 F1016
G1 X539.614 Y20.277 Z-12.083 F1016
G1 X539.582 Y20.225 Z-12.089 F1016
G1 X539.556 Y20.169 Z-12.094 F1016
G1 X539.538 Y20.11 Z-12.099 F1016
G1 X539.528 Y20.049 Z-12.105 F1016
G1 X539.525 Y19.988 Z-12.11 F1016
G1 X539.531 Y19.927 Z-12.115 F1016
G1 X539.544 Y19.866 Z-12.12 F1016
G1 X539.565 Y19.809 Z-12.126 F1016
G1 X539.594 Y19.754 Z-12.131 F1016
G1 X539.629 Y19.703 Z-12.136 F1016
G1 X539.671 Y19.658 Z-12.141 F1016
G1 X539.718 Y19.618 Z-12.147 F1016
G1 X539.769 Y19.585 Z-12.152 F1016
G1 X539.825 Y19.558 Z-12.157 F1016
G1 X539.884 Y19.539 Z-12.162 F1016
G1 X539.944 Y19.528 Z-12.168 F1016
G1 X540.006 Y19.525 Z-12.173 F1016
G1 X540.067 Y19.53 Z-12.178 F1016
G1 X540.127 Y19.542 Z-12.184 F1016
G1 X540.186 Y19.563 Z-12.189 F1016
G1 X540.241 Y19.59 Z-12.194 F1016
G1 X540.292 Y19.625 Z-12.199 F1016
G1 X540.338 Y19.666 Z-12.205 F1016
G1 X540.378 Y19.712 Z-12.21 F1016
G1 X540.412 Y19.764 Z-12.215 F1016
G1 X540.439 Y19.819 Z-12.22 F1016
G1 X540.459 Y19.877 Z-12.226 F1016
G1 X540.471 Y19.938 Z-12.231 F1016
G1 X540.475 Y19.999 Z-12.236 F1016
G1 X540.471 Y20.061 Z-12.241 F1016
G1 X540.459 Y20.121 Z-12.247 F1016
G1 X540.44 Y20.18 Z-12.252 F1016
G1 X540.413 Y20.235 Z-12.257 F1016
G1 X540.379 Y20.286 Z-12.263 F1016
G1 X540.339 Y20.333 Z-12.268 F1016
G1 X540.293 Y20.374 Z-12.273 F1016
G1 X540.242 Y20.409 Z-12.278 F1016
G1 X540.187 Y20.437 Z-12.284 F1016
G1 X540.129 Y20.457 Z-12.289 F1016
G1 X540.069 Y20.47 Z-12.294 F1016
G1 X540.007 Y20.475 Z-12.299 F1016
G1 X539.946 Y20.472 Z-12.305 F1016
G1 X539.885 Y20.461 Z-12.31 F1016
G1 X539.826 Y20.442 Z-12.315 F1016
G1 X539.771 Y20.416 Z-12.32 F1016
G1 X539.719 Y20.383 Z-12.326 F1016
G1 X539.672 Y20.343 Z-12.331 F1016
G1 X539.63 Y20.298 Z-12.336 F1016
G1 X539.594 Y20.247 Z-12.341 F1016
G1 X539.566 Y20.193 Z-12.347 F1016
G1 X539.545 Y20.135 Z-12.352 F1016
G1 X539.531 Y20.075 Z-12.357 F1016
G1 X539.525 Y20.014 Z-12.363 F1016
G1 X539.527 Y19.952 Z-12.368 F1016
G1 X539.538 Y19.891 Z-12.373 F1016
G1 X539.556 Y19.832 Z-12.378 F1016
G1 X539.581 Y19.776 Z-12.384 F1016
G1 X539.614 Y19.724 Z-12.389 F1016
G1 X539.653 Y19.676 Z-12.394 F1016
G1 X539.697 Y19.634 Z-12.399 F1016
G1 X539.747 Y19.598 Z-12.405 F1016
G1 X539.801 Y19.569 Z-12.41 F1016
G1 X539.859 Y19.546 Z-12.415 F1016
G1 X539.919 Y19.532 Z-12.42 F1016
G1 X539.98 Y19.525 Z-12.426 F1016
G1 X540.042 Y19.527 Z-12.431 F1016
G1 X540.102 Y19.536 Z-12.436 F1016
G1 X540.162 Y19.553 Z-12.442 F1016
G1 X540.218 Y19.578 Z-12.447 F1016
G1 X540.271 Y19.61 Z-12.452 F1016
G1 X540.319 Y19.648 Z-12.457 F1016
G1 X540.362 Y19.692 Z-12.463 F1016
G1 X540.399 Y19.742 Z-12.468 F1016
G1 X540.429 Y19.796 Z-12.473 F1016
G1 X540.452 Y19.853 Z-12.478 F1016
G1 X540.467 Y19.912 Z-12.484 F1016
G1 X540.474 Y19.974 Z-12.489 F1016
G1 Y20.035 Z-12.494 F1016
G1 X540.465 Y20.096 Z-12.499 F1016
G1 X540.449 Y20.156 Z-12.505 F1016
G1 X540.425 Y20.212 Z-12.51 F1016
G1 X540.394 Y20.266 Z-12.515 F1016
G1 X540.356 Y20.314 Z-12.52 F1016
G1 X540.312 Y20.358 Z-12.526 F1016
G1 X540.264 Y20.395 Z-12.531 F1016
G1 X540.21 Y20.426 Z-12.536 F1016
G1 X540.153 Y20.45 Z-12.542 F1016
G1 X540.094 Y20.466 Z-12.547 F1016
G1 X540.033 Y20.474 Z-12.552 F1016
G1 X539.971 Z-12.557 F1016
G1 X539.91 Y20.466 Z-12.563 F1016
G1 X539.85 Y20.451 Z-12.568 F1016
G1 X539.793 Y20.428 Z-12.573 F1016
G1 X539.74 Y20.397 Z-12.578 F1016
G1 X539.691 Y20.36 Z-12.584 F1016
G1 X539.647 Y20.317 Z-12.589 F1016
G1 X539.608 Y20.269 Z-12.594 F1016
G1 X539.577 Y20.216 Z-12.599 F1016
G1 X539.553 Y20.159 Z-12.605 F1016
G1 X539.536 Y20.1 Z-12.61 F1016
G1 X539.527 Y20.039 Z-12.615 F1016
G1 X539.526 Y19.978 Z-12.621 F1016
G1 X539.532 Y19.916 Z-12.626 F1016
G1 X539.547 Y19.857 Z-12.631 F1016
G1 X539.57 Y19.799 Z-12.636 F1016
G1 X539.599 Y19.745 Z-12.642 F1016
G1 X539.635 Y19.695 Z-12.647 F1016
G1 X539.678 Y19.651 Z-12.652 F1016
G1 X539.726 Y19.612 Z-12.657 F1016
G1 X539.778 Y19.58 Z-12.663 F1016
G1 X539.835 Y19.555 Z-12.668 F1016
G1 X539.894 Y19.537 Z-12.673 F1016
G1 X539.954 Y19.527 Z-12.678 F1016
G1 X540.016 Y19.525 Z-12.684 F1016
G1 X540.077 Y19.531 Z-12.689 F1016
G1 X540.137 Y19.545 Z-12.694 F1016
G1 X540.195 Y19.567 Z-12.7 F1016
G1 X540.249 Y19.596 Z-12.705 F1016
G1 X540.3 Y19.631 Z-12.71 F1016
G1 X540.345 Y19.673 Z-12.715 F1016
G1 X540.384 Y19.721 Z-12.721 F1016
G1 X540.417 Y19.773 Z-12.726 F1016
G1 X540.443 Y19.829 Z-12.731 F1016
G1 X540.461 Y19.887 Z-12.736 F1016
G1 X540.472 Y19.948 Z-12.742 F1016
G1 X540.475 Y20.01 Z-12.747 F1016
G1 X540.47 Y20.071 Z-12.752 F1016
G1 X540.457 Y20.131 Z-12.757 F1016
G1 X540.436 Y20.189 Z-12.763 F1016
G1 X540.408 Y20.244 Z-12.768 F1016
G1 X540.373 Y20.295 Z-12.773 F1016
G1 X540.331 Y20.34 Z-12.778 F1016
G1 X540.285 Y20.38 Z-12.784 F1016
G1 X540.233 Y20.414 Z-12.789 F1016
G1 X540.177 Y20.441 Z-12.794 F1016
G1 X540.119 Y20.46 Z-12.8 F1016
G1 X540.058 Y20.471 Z-12.805 F1016
G1 X539.997 Y20.475 Z-12.81 F1016
G1 X539.935 Y20.471 Z-12.815 F1016
G1 X539.875 Y20.458 Z-12.821 F1016
G1 X539.817 Y20.438 Z-12.826 F1016
G1 X539.762 Y20.411 Z-12.831 F1016
G1 X539.71 Y20.377 Z-12.836 F1016
G1 X539.664 Y20.336 Z-12.842 F1016
G1 X539.624 Y20.29 Z-12.847 F1016
G1 X539.589 Y20.238 Z-12.852 F1016
G1 X539.562 Y20.183 Z-12.857 F1016
G1 X539.542 Y20.125 Z-12.863 F1016
G1 X539.529 Y20.065 Z-12.868 F1016
G1 X539.525 Y20.003 Z-12.873 F1016
G1 X539.529 Y19.942 Z-12.879 F1016
G1 X539.54 Y19.881 Z-12.884 F1016
G1 X539.559 Y19.823 Z-12.889 F1016
G1 X539.586 Y19.767 Z-12.894 F1016
G1 X539.62 Y19.716 Z-12.9 F1016
G1 X539.66 Y19.669 Z-12.905 F1016
G1 X539.705 Y19.628 Z-12.91 F1016
G1 X539.756 Y19.592 Z-12.915 F1016
G1 X539.811 Y19.564 Z-12.921 F1016
G1 X539.869 Y19.544 Z-12.926 F1016
G1 X539.929 Y19.53 Z-12.931 F1016
G1 X539.99 Y19.525 Z-12.936 F1016
G1 X540.052 Y19.528 Z-12.942 F1016
G1 X540.112 Y19.539 Z-12.947 F1016
G1 X540.171 Y19.557 Z-12.952 F1016
G1 X540.227 Y19.583 Z-12.958 F1016
G1 X540.279 Y19.616 Z-12.963 F1016
G1 X540.327 Y19.655 Z-12.968 F1016
G1 X540.368 Y19.7 Z-12.973 F1016
G1 X540.404 Y19.75 Z-12.979 F1016
G1 X540.433 Y19.805 Z-12.984 F1016
G1 X540.455 Y19.863 Z-12.989 F1016
G1 X540.469 Y19.923 Z-12.994 F1016
G1 X540.475 Y19.984 Z-13 F1016
G1 X540.473 Y20.045 Z-13.005 F1016
G1 X540.463 Y20.106 Z-13.01 F1016
G1 X540.445 Y20.165 Z-13.015 F1016
G1 X540.42 Y20.221 Z-13.021 F1016
G1 X540.388 Y20.274 Z-13.026 F1016
G1 X540.349 Y20.322 Z-13.031 F1016
G1 X540.305 Y20.364 Z-13.036 F1016
G1 X540.255 Y20.401 Z-13.042 F1016
G1 X540.201 Y20.43 Z-13.047 F1016
G1 X540.144 Y20.453 Z-13.052 F1016
G1 X540.084 Y20.468 Z-13.058 F1016
G1 X540.023 Y20.474 Z-13.063 F1016
G1 X539.961 Y20.473 Z-13.068 F1016
G1 X539.9 Y20.464 Z-13.073 F1016
G1 X539.841 Y20.448 Z-13.079 F1016
G1 X539.784 Y20.423 Z-13.084 F1016
G1 X539.731 Y20.392 Z-13.089 F1016
G1 X539.683 Y20.354 Z-13.094 F1016
G1 X539.64 Y20.31 Z-13.1 F1016
G1 X539.603 Y20.26 Z-13.105 F1016
G1 X539.572 Y20.207 Z-13.11 F1016
G1 X539.549 Y20.15 Z-13.115 F1016
G1 X539.534 Y20.09 Z-13.121 F1016
G1 X539.526 Y20.029 Z-13.126 F1016
G1 Y19.967 Z-13.131 F1016
G1 X539.534 Y19.906 Z-13.137 F1016
G1 X539.55 Y19.847 Z-13.142 F1016
G1 X539.574 Y19.79 Z-13.147 F1016
G1 X539.605 Y19.737 Z-13.152 F1016
G1 X539.642 Y19.688 Z-13.158 F1016
G1 X539.686 Y19.644 Z-13.163 F1016
G1 X539.734 Y19.606 Z-13.168 F1016
G1 X539.787 Y19.575 Z-13.173 F1016
G1 X539.844 Y19.551 Z-13.179 F1016
G1 X539.904 Y19.535 Z-13.184 F1016
G1 X539.965 Y19.526 Z-13.189 F1016
G1 X540.026 Z-13.194 F1016
G1 X540.087 Y19.533 Z-13.2 F1016
G1 X540.147 Y19.548 Z-13.205 F1016
G1 X540.204 Y19.571 Z-13.21 F1016
G1 X540.258 Y19.601 Z-13.215 F1016
G1 X540.307 Y19.638 Z-13.221 F1016
G1 X540.352 Y19.681 Z-13.226 F1016
G1 X540.39 Y19.729 Z-13.231 F1016
G1 X540.422 Y19.782 Z-13.237 F1016
G1 X540.447 Y19.838 Z-13.242 F1016
G1 X540.464 Y19.897 Z-13.247 F1016
G1 X540.473 Y19.958 Z-13.252 F1016
G1 X540.475 Y20.02 Z-13.258 F1016
G1 X540.468 Y20.081 Z-13.263 F1016
G1 X540.454 Y20.141 Z-13.268 F1016
G1 X540.432 Y20.198 Z-13.273 F1016
G1 X540.402 Y20.253 Z-13.279 F1016
G1 X540.366 Y20.303 Z-13.284 F1016
G1 X540.324 Y20.347 Z-13.289 F1016
G1 X540.276 Y20.386 Z-13.294 F1016
G1 X540.224 Y20.419 Z-13.3 F1016
G1 X540.168 Y20.444 Z-13.305 F1016
G1 X540.109 Y20.462 Z-13.31 F1016
G1 X540.048 Y20.473 Z-13.316 F1016
G1 X539.987 Y20.475 Z-13.321 F1016
G1 X539.925 Y20.469 Z-13.326 F1016
G1 X539.865 Y20.455 Z-13.331 F1016
G1 X539.807 Y20.434 Z-13.337 F1016
G1 X539.753 Y20.406 Z-13.342 F1016
G1 X539.702 Y20.37 Z-13.347 F1016
G1 X539.657 Y20.329 Z-13.352 F1016
G1 X539.617 Y20.281 Z-13.358 F1016
G1 X539.584 Y20.23 Z-13.363 F1016
G1 X539.558 Y20.174 Z-13.368 F1016
G1 X539.539 Y20.115 Z-13.373 F1016
G1 X539.528 Y20.055 Z-13.379 F1016
G1 X539.525 Y19.993 Z-13.384 F1016
G1 X539.53 Y19.932 Z-13.389 F1016
G1 X539.543 Y19.871 Z-13.395 F1016
G1 X539.563 Y19.813 Z-13.4 F1016
G1 X539.591 Y19.758 Z-13.405 F1016
G1 X539.626 Y19.707 Z-13.41 F1016
G1 X539.667 Y19.662 Z-13.416 F1016
G1 X539.713 Y19.621 Z-13.421 F1016
G1 X539.765 Y19.587 Z-13.426 F1016
G1 X539.82 Y19.56 Z-13.431 F1016
G1 X539.879 Y19.541 Z-13.437 F1016
G1 X539.939 Y19.529 Z-13.442 F1016
G1 X540.001 Y19.525 Z-13.447 F1016
G1 X540.062 Y19.529 Z-13.452 F1016
G1 X540.122 Y19.541 Z-13.458 F1016
G1 X540.181 Y19.561 Z-13.463 F1016
G1 X540.236 Y19.588 Z-13.468 F1016
G1 X540.287 Y19.622 Z-13.473 F1016
G1 X540.334 Y19.662 Z-13.479 F1016
G1 X540.375 Y19.708 Z-13.484 F1016
G1 X540.409 Y19.759 Z-13.489 F1016
G1 X540.437 Y19.814 Z-13.495 F1016
G1 X540.458 Y19.872 Z-13.5 F1016
G1 X540.47 Y19.933 Z-13.505 F1016
G1 X540.475 Y19.994 Z-13.51 F1016
G1 X540.472 Y20.056 Z-13.516 F1016
G1 X540.461 Y20.116 Z-13.521 F1016
G1 X540.442 Y20.175 Z-13.526 F1016
G1 X540.415 Y20.23 Z-13.531 F1016
G1 X540.382 Y20.282 Z-13.537 F1016
G1 X540.342 Y20.329 Z-13.542 F1016
G1 X540.297 Y20.371 Z-13.547 F1016
G1 X540.246 Y20.406 Z-13.552 F1016
G1 X540.192 Y20.435 Z-13.558 F1016
G1 X540.134 Y20.456 Z-13.563 F1016
G1 X540.074 Y20.469 Z-13.568 F1016
G1 X540.012 Y20.475 Z-13.574 F1016
G1 X539.951 Y20.472 Z-13.579 F1016
G1 X539.89 Y20.462 Z-13.584 F1016
G1 X539.831 Y20.444 Z-13.589 F1016
G1 X539.775 Y20.418 Z-13.595 F1016
G1 X539.723 Y20.386 Z-13.6 F1016
G1 X539.675 Y20.347 Z-13.605 F1016
G1 X539.633 Y20.302 Z-13.61 F1016
G1 X539.597 Y20.252 Z-13.616 F1016
G1 X539.568 Y20.197 Z-13.621 F1016
G1 X539.546 Y20.14 Z-13.626 F1016
G1 X539.532 Y20.08 Z-13.631 F1016
G1 X539.525 Y20.019 Z-13.637 F1016
G1 X539.527 Y19.957 Z-13.642 F1016
G1 X539.536 Y19.896 Z-13.647 F1016
G1 X539.554 Y19.837 Z-13.653 F1016
G1 X539.579 Y19.781 Z-13.658 F1016
G1 X539.611 Y19.728 Z-13.663 F1016
G1 X539.649 Y19.68 Z-13.668 F1016
G1 X539.693 Y19.637 Z-13.674 F1016
G1 X539.743 Y19.601 Z-13.679 F1016
G1 X539.797 Y19.571 Z-13.684 F1016
G1 X539.854 Y19.548 Z-13.689 F1016
G1 X539.914 Y19.533 Z-13.695 F1016
G1 X539.975 Y19.526 Z-13.7 F1016
G1 X540.036 Z-13.705 F1016
G1 X540.097 Y19.535 Z-13.71 F1016
G1 X540.157 Y19.552 Z-13.716 F1016
G1 X540.213 Y19.576 Z-13.721 F1016
G1 X540.267 Y19.607 Z-13.726 F1016
G1 X540.315 Y19.645 Z-13.731 F1016
G1 X540.359 Y19.688 Z-13.737 F1016
G1 X540.396 Y19.737 Z-13.742 F1016
G1 X540.426 Y19.791 Z-13.747 F1016
G1 X540.45 Y19.848 Z-13.753 F1016
G1 X540.466 Y19.907 Z-13.758 F1016
G1 X540.474 Y19.968 Z-13.763 F1016
G1 Y20.03 Z-13.768 F1016
G1 X540.466 Y20.091 Z-13.774 F1016
G1 X540.45 Y20.151 Z-13.779 F1016
G1 X540.427 Y20.208 Z-13.784 F1016
G1 X540.397 Y20.261 Z-13.789 F1016
G1 X540.36 Y20.31 Z-13.795 F1016
G1 X540.316 Y20.354 Z-13.8 F1016
G1 X540.268 Y20.392 Z-13.805 F1016
G1 X540.215 Y20.424 Z-13.81 F1016
G1 X540.158 Y20.448 Z-13.816 F1016
G1 X540.099 Y20.465 Z-13.821 F1016
G1 X540.038 Y20.473 Z-13.826 F1016
G1 X539.976 Y20.474 Z-13.832 F1016
G1 X539.915 Y20.467 Z-13.837 F1016
G1 X539.855 Y20.452 Z-13.842 F1016
G1 X539.798 Y20.43 Z-13.847 F1016
G1 X539.744 Y20.4 Z-13.853 F1016
G1 X539.695 Y20.364 Z-13.858 F1016
G1 X539.65 Y20.321 Z-13.863 F1016
G1 X539.611 Y20.273 Z-13.868 F1016
G1 X539.579 Y20.221 Z-13.874 F1016
G1 X539.554 Y20.164 Z-13.879 F1016
G1 X539.537 Y20.105 Z-13.884 F1016
G1 X539.527 Y20.044 Z-13.889 F1016
G1 X539.525 Y19.983 Z-13.895 F1016
G1 X539.532 Y19.922 Z-13.9 F1016
G1 X539.546 Y19.862 Z-13.905 F1016
G1 X539.567 Y19.804 Z-13.91 F1016
G1 X539.596 Y19.75 Z-13.916 F1016
G1 X539.632 Y19.699 Z-13.921 F1016
G1 X539.674 Y19.654 Z-13.926 F1016
G1 X539.722 Y19.615 Z-13.932 F1016
G1 X539.774 Y19.582 Z-13.937 F1016
G1 X539.83 Y19.557 Z-13.942 F1016
G1 X539.889 Y19.538 Z-13.947 F1016
G1 X539.949 Y19.528 Z-13.953 F1016
G1 X540.011 Y19.525 Z-13.958 F1016
G1 X540.072 Y19.531 Z-13.963 F1016
G1 X540.132 Y19.544 Z-13.968 F1016
G1 X540.19 Y19.565 Z-13.974 F1016
G1 X540.245 Y19.593 Z-13.979 F1016
G1 X540.296 Y19.628 Z-13.984 F1016
G1 X540.341 Y19.67 Z-13.989 F1016
G1 X540.381 Y19.716 Z-13.995 F1016
G1 X540.415 Y19.768 Z-14 F1016
G3 X539.585 Y20.232 I-0.415 J0.232 F1016
G3 X540.415 Y19.768 I0.415 J-0.232 F1016
; MOVEMENT_LEAD_OUT
G3 X540.323 Y20.091 I-0.207 J0.116 F1016
G1 X540.046 Y20.246 F1016
; MOVEMENT_CUTTING
G1 Z4 F1016
G1 X499.92 Y19.763 F1016
G1 Z1.365 F1016
; MOVEMENT_LEAD_IN
G1 Z0 F1016
G1 X500.237 F1016
G3 X500.475 Y20 J0.237 F1016
; MOVEMENT_CUTTING
G1 X500.471 Y20.061 Z-0.005 F1016
G1 X500.459 Y20.122 Z-0.011 F1016
G1 X500.439 Y20.18 Z-0.016 F1016
G1 X500.412 Y20.236 Z-0.021 F1016
G1 X500.378 Y20.287 Z-0.026 F1016
G1 X500.338 Y20.334 Z-0.032 F1016
G1 X500.292 Y20.375 Z-0.037 F1016
G1 X500.241 Y20.409 Z-0.042 F1016
G1 X500.186 Y20.437 Z-0.047 F1016
G1 X500.128 Y20.457 Z-0.053 F1016
G1 X500.068 Y20.47 Z-0.058 F1016
G1 X500.006 Y20.475 Z-0.063 F1016
G1 X499.945 Y20.472 Z-0.068 F1016
G1 X499.884 Y20.461 Z-0.074 F1016
G1 X499.826 Y20.442 Z-0.079 F1016
G1 X499.77 Y20.416 Z-0.084 F1016
G1 X499.718 Y20.382 Z-0.09 F1016
G1 X499.671 Y20.343 Z-0.095 F1016
G1 X499.629 Y20.297 Z-0.1 F1016
G1 X499.594 Y20.247 Z-0.105 F1016
G1 X499.566 Y20.192 Z-0.111 F1016
G1 X499.544 Y20.134 Z-0.116 F1016
G1 X499.531 Y20.074 Z-0.121 F1016
G1 X499.525 Y20.013 Z-0.126 F1016
G1 X499.527 Y19.951 Z-0.132 F1016
G1 X499.538 Y19.891 Z-0.137 F1016
G1 X499.556 Y19.832 Z-0.142 F1016
G1 X499.581 Y19.776 Z-0.147 F1016
G1 X499.614 Y19.723 Z-0.153 F1016
G1 X499.653 Y19.676 Z-0.158 F1016
G1 X499.698 Y19.633 Z-0.163 F1016
G1 X499.748 Y19.597 Z-0.168 F1016
G1 X499.802 Y19.568 Z-0.174 F1016
G1 X499.86 Y19.546 Z-0.179 F1016
G1 X499.919 Y19.532 Z-0.184 F1016
G1 X499.981 Y19.525 Z-0.19 F1016
G1 X500.042 Y19.527 Z-0.195 F1016
G1 X500.103 Y19.536 Z-0.2 F1016
G1 X500.162 Y19.554 Z-0.205 F1016
G1 X500.219 Y19.578 Z-0.211 F1016
G1 X500.271 Y19.61 Z-0.216 F1016
G1 X500.32 Y19.649 Z-0.221 F1016
G1 X500.362 Y19.693 Z-0.226 F1016
G1 X500.399 Y19.742 Z-0.232 F1016
G1 X500.429 Y19.796 Z-0.237 F1016
G1 X500.452 Y19.853 Z-0.242 F1016
G1 X500.467 Y19.913 Z-0.247 F1016
G1 X500.474 Y19.974 Z-0.253 F1016
G1 Y20.036 Z-0.258 F1016
G1 X500.465 Y20.097 Z-0.263 F1016
G1 X500.449 Y20.156 Z-0.269 F1016
G1 X500.425 Y20.213 Z-0.274 F1016
G1 X500.393 Y20.266 Z-0.279 F1016
G1 X500.356 Y20.315 Z-0.284 F1016
G1 X500.312 Y20.358 Z-0.29 F1016
G1 X500.263 Y20.396 Z-0.295 F1016
G1 X500.21 Y20.426 Z-0.3 F1016
G1 X500.153 Y20.45 Z-0.305 F1016
G1 X500.093 Y20.466 Z-0.311 F1016
G1 X500.032 Y20.474 Z-0.316 F1016
G1 X499.97 Z-0.321 F1016
G1 X499.909 Y20.466 Z-0.326 F1016
G1 X499.85 Y20.451 Z-0.332 F1016
G1 X499.793 Y20.427 Z-0.337 F1016
G1 X499.739 Y20.397 Z-0.342 F1016
G1 X499.69 Y20.36 Z-0.347 F1016
G1 X499.646 Y20.317 Z-0.353 F1016
G1 X499.608 Y20.268 Z-0.358 F1016
G1 X499.577 Y20.215 Z-0.363 F1016
G1 X499.552 Y20.159 Z-0.369 F1016
G1 X499.536 Y20.099 Z-0.374 F1016
G1 X499.527 Y20.039 Z-0.379 F1016
G1 X499.526 Y19.977 Z-0.384 F1016
G1 X499.533 Y19.916 Z-0.39 F1016
G1 X499.547 Y19.856 Z-0.395 F1016
G1 X499.57 Y19.799 Z-0.4 F1016
G1 X499.6 Y19.745 Z-0.405 F1016
G1 X499.636 Y19.695 Z-0.411 F1016
G1 X499.678 Y19.65 Z-0.416 F1016
G1 X499.726 Y19.612 Z-0.421 F1016
G1 X499.779 Y19.58 Z-0.426 F1016
G1 X499.835 Y19.554 Z-0.432 F1016
G1 X499.894 Y19.537 Z-0.437 F1016
G1 X499.955 Y19.527 Z-0.442 F1016
G1 X500.017 Y19.525 Z-0.448 F1016
G1 X500.078 Y19.531 Z-0.453 F1016
G1 X500.138 Y19.545 Z-0.458 F1016
G1 X500.196 Y19.567 Z-0.463 F1016
G1 X500.25 Y19.596 Z-0.469 F1016
G1 X500.3 Y19.632 Z-0.474 F1016
G1 X500.345 Y19.674 Z-0.479 F1016
G1 X500.385 Y19.721 Z-0.484 F1016
G1 X500.417 Y19.773 Z-0.49 F1016
G1 X500.443 Y19.829 Z-0.495 F1016
G1 X500.462 Y19.888 Z-0.5 F1016
G1 X500.472 Y19.949 Z-0.505 F1016
G1 X500.475 Y20.01 Z-0.511 F1016
G1 X500.47 Y20.072 Z-0.516 F1016
G1 X500.456 Y20.132 Z-0.521 F1016
G1 X500.435 Y20.19 Z-0.527 F1016
G1 X500.407 Y20.244 Z-0.532 F1016
G1 X500.372 Y20.295 Z-0.537 F1016
G1 X500.331 Y20.341 Z-0.542 F1016
G1 X500.284 Y20.381 Z-0.548 F1016
G1 X500.232 Y20.414 Z-0.553 F1016
G1 X500.177 Y20.441 Z-0.558 F1016
G1 X500.118 Y20.46 Z-0.563 F1016
G1 X500.058 Y20.471 Z-0.569 F1016
G1 X499.996 Y20.475 Z-0.574 F1016
G1 X499.935 Y20.471 Z-0.579 F1016
G1 X499.874 Y20.458 Z-0.584 F1016
G1 X499.816 Y20.438 Z-0.59 F1016
G1 X499.761 Y20.411 Z-0.595 F1016
G1 X499.71 Y20.376 Z-0.6 F1016
G1 X499.664 Y20.335 Z-0.605 F1016
G1 X499.623 Y20.289 Z-0.611 F1016
G1 X499.589 Y20.238 Z-0.616 F1016
G1 X499.562 Y20.183 Z-0.621 F1016
G1 X499.542 Y20.124 Z-0.627 F1016
G1 X499.529 Y20.064 Z-0.632 F1016
G1 X499.525 Y20.003 Z-0.637 F1016
G1 X499.529 Y19.941 Z-0.642 F1016
G1 X499.54 Y19.881 Z-0.648 F1016
G1 X499.56 Y19.822 Z-0.653 F1016
G1 X499.586 Y19.767 Z-0.658 F1016
G1 X499.62 Y19.715 Z-0.663 F1016
G1 X499.66 Y19.668 Z-0.669 F1016
G1 X499.706 Y19.627 Z-0.674 F1016
G1 X499.757 Y19.592 Z-0.679 F1016
G1 X499.811 Y19.564 Z-0.684 F1016
G1 X499.869 Y19.543 Z-0.69 F1016
G1 X499.93 Y19.53 Z-0.695 F1016
G1 X499.991 Y19.525 Z-0.7 F1016
G1 X500.053 Y19.528 Z-0.706 F1016
G1 X500.113 Y19.539 Z-0.711 F1016
G1 X500.172 Y19.557 Z-0.716 F1016
G1 X500.228 Y19.583 Z-0.721 F1016
G1 X500.28 Y19.616 Z-0.727 F1016
G1 X500.327 Y19.656 Z-0.732 F1016
G1 X500.369 Y19.701 Z-0.737 F1016
G1 X500.405 Y19.751 Z-0.742 F1016
G1 X500.433 Y19.806 Z-0.748 F1016
G1 X500.455 Y19.863 Z-0.753 F1016
G1 X500.469 Y19.923 Z-0.758 F1016
G1 X500.475 Y19.985 Z-0.763 F1016
G1 X500.473 Y20.046 Z-0.769 F1016
G1 X500.463 Y20.107 Z-0.774 F1016
G1 X500.445 Y20.166 Z-0.779 F1016
G1 X500.42 Y20.222 Z-0.785 F1016
G1 X500.388 Y20.275 Z-0.79 F1016
G1 X500.349 Y20.322 Z-0.795 F1016
G1 X500.304 Y20.365 Z-0.8 F1016
G1 X500.254 Y20.401 Z-0.806 F1016
G1 X500.2 Y20.431 Z-0.811 F1016
G1 X500.143 Y20.453 Z-0.816 F1016
G1 X500.083 Y20.468 Z-0.821 F1016
G1 X500.022 Y20.475 Z-0.827 F1016
G1 X499.96 Y20.473 Z-0.832 F1016
G1 X499.899 Y20.464 Z-0.837 F1016
G1 X499.84 Y20.447 Z-0.842 F1016
G1 X499.784 Y20.423 Z-0.848 F1016
G1 X499.731 Y20.391 Z-0.853 F1016
G1 X499.682 Y20.353 Z-0.858 F1016
G1 X499.639 Y20.309 Z-0.863 F1016
G1 X499.602 Y20.26 Z-0.869 F1016
G1 X499.572 Y20.206 Z-0.874 F1016
G1 X499.549 Y20.149 Z-0.879 F1016
G1 X499.533 Y20.089 Z-0.885 F1016
G1 X499.526 Y20.028 Z-0.89 F1016
G1 Y19.967 Z-0.895 F1016
G1 X499.534 Y19.906 Z-0.9 F1016
G1 X499.551 Y19.846 Z-0.906 F1016
G1 X499.574 Y19.789 Z-0.911 F1016
G1 X499.605 Y19.736 Z-0.916 F1016
G1 X499.643 Y19.687 Z-0.921 F1016
G1 X499.686 Y19.644 Z-0.927 F1016
G1 X499.735 Y19.606 Z-0.932 F1016
G1 X499.788 Y19.575 Z-0.937 F1016
G1 X499.845 Y19.551 Z-0.942 F1016
G1 X499.904 Y19.535 Z-0.948 F1016
G1 X499.965 Y19.526 Z-0.953 F1016
G1 X500.027 Z-0.958 F1016
G1 X500.088 Y19.533 Z-0.964 F1016
G1 X500.148 Y19.549 Z-0.969 F1016
G1 X500.205 Y19.571 Z-0.974 F1016
G1 X500.259 Y19.602 Z-0.979 F1016
G1 X500.308 Y19.638 Z-0.985 F1016
G1 X500.352 Y19.681 Z-0.99 F1016
G1 X500.39 Y19.73 Z-0.995 F1016
G1 X500.422 Y19.782 Z-1 F1016
G1 X500.447 Y19.839 Z-1.006 F1016
G1 X500.464 Y19.898 Z-1.011 F1016
G1 X500.473 Y19.959 Z-1.016 F1016
G1 X500.475 Y20.02 Z-1.021 F1016
G1 X500.468 Y20.082 Z-1.027 F1016
G1 X500.453 Y20.142 Z-1.032 F1016
G1 X500.431 Y20.199 Z-1.037 F1016
G1 X500.402 Y20.253 Z-1.042 F1016
G1 X500.366 Y20.303 Z-1.048 F1016
G1 X500.323 Y20.348 Z-1.053 F1016
G1 X500.276 Y20.387 Z-1.058 F1016
G1 X500.223 Y20.419 Z-1.064 F1016
G1 X500.167 Y20.445 Z-1.069 F1016
G1 X500.108 Y20.463 Z-1.074 F1016
G1 X500.047 Y20.473 Z-1.079 F1016
G1 X499.986 Y20.475 Z-1.085 F1016
G1 X499.925 Y20.469 Z-1.09 F1016
G1 X499.865 Y20.455 Z-1.095 F1016
G1 X499.807 Y20.434 Z-1.1 F1016
G1 X499.752 Y20.405 Z-1.106 F1016
G1 X499.702 Y20.37 Z-1.111 F1016
G1 X499.657 Y20.328 Z-1.116 F1016
G1 X499.617 Y20.281 Z-1.121 F1016
G1 X499.584 Y20.229 Z-1.127 F1016
G1 X499.558 Y20.173 Z-1.132 F1016
G1 X499.539 Y20.115 Z-1.137 F1016
G1 X499.528 Y20.054 Z-1.143 F1016
G1 X499.525 Y19.992 Z-1.148 F1016
G1 X499.53 Y19.931 Z-1.153 F1016
G1 X499.543 Y19.871 Z-1.158 F1016
G1 X499.563 Y19.813 Z-1.164 F1016
G1 X499.591 Y19.758 Z-1.169 F1016
G1 X499.626 Y19.707 Z-1.174 F1016
G1 X499.667 Y19.661 Z-1.179 F1016
G1 X499.714 Y19.621 Z-1.185 F1016
G1 X499.765 Y19.587 Z-1.19 F1016
G1 X499.821 Y19.56 Z-1.195 F1016
G1 X499.879 Y19.541 Z-1.2 F1016
G1 X499.94 Y19.529 Z-1.206 F1016
G1 X500.001 Y19.525 Z-1.211 F1016
G1 X500.063 Y19.529 Z-1.216 F1016
G1 X500.123 Y19.541 Z-1.222 F1016
G1 X500.181 Y19.561 Z-1.227 F1016
